!!!!SEGMENT: pl-stab--10a--001-005_rodowski-aleksander--litanie-lauretane-de-b-v-m-mater-amabilis.krn
!!!cenid: 18xx:3435
!!!COM: Rodowski, Aleksander
!!!COM-rismid: pe30009627
!!!CDT: <1790->1810
!!!CNT: Polish
!!!OPR: Litanie Lauretane de B.V.M
!!!OTL: Mater amabilis
!!!OMV: 005
!!!PDT:
!!!AGN:
!!!SMS-siglum: PL-STAb
!!!SMS-shelfmark: 10a
!!!SMS-shelfwork: 001-005 M
!!!SMS-variant:
!!!SMS-altvar:
!!!NIFC-rismid: 301050674
!!!URL-scan: https://repozytorium.nifc.pl/islandora/object/pl-stab%3A2273/datastream/PDF/view
!!!ONB-nifc: UWAGA: części Litanii: 1. Kyrie, 2. Pater de caelis, 3. Sancta Maria, 4. Mater Christi, 5. Mater amabilis, 6. Virgo prudentissima, 7. Rosa mistica, 8. Salus infirmorum, 9. Regina angelorum, 10. Agnus Dei
!!!OMD: Allegro
!!!key: G
**kern	**fba	**kern	**dynam	**kern	**dynam	**kern	**text	**kern	**text	**kern	**kern	**dynam	**kern	**dynam
*part8	*part8	*part7	*part7	*part6	*part6	*part5	*part5	*part4	*part4	*part3	*part2	*part2	*part1	*part1
*staff8	*	*staff7	*	*staff6	*	*staff5	*staff5	*staff4	*staff4	*staff3	*staff2	*	*staff1	*
*I"Organo	*	*I"Violino Secundo	*	*I"Violino Primo	*	*I"Baſso	*	*I"Tenore	*	*I"Canto	*I"Cornu Secundo in G.	*	*I"Cornu Primo in G.	*
*I'org	*	*I'vl 2	*	*I'vl 1	*	*I'B	*	*I'T	*	*I'S	*I'cor 2 in G	*	*I'cor 1 in G	*
*ICklav	*	*ICstr	*	*ICstr	*	*ICvox 	*	*ICvox 	*	*ICvox 	*ICbras	*	*ICbras	*
*IGacmp	*	*IGacmp	*	*IGacmp	*	*IGcoro	*	*IGcoro	*	*IGcoro	*IGacmp	*	*IGacmp	*
*clefF4	*	*clefG2	*	*clefG2	*	*clefF4	*	*clefC4	*	*clefC1	*clefG2	*	*clefG2	*
*	*	*	*	*	*	*	*	*	*	*	*ITrd3c5	*	*ITrd3c5	*
*k[f#]	*	*k[f#]	*	*k[f#]	*	*k[f#]	*	*k[f#]	*	*k[f#]	*k[f#]	*	*k[f#]	*
*G:	*	*G:	*	*G:	*	*G:	*	*G:	*	*G:	*G:	*	*G:	*
*M2/2	*	*M2/2	*	*M2/2	*	*M2/2	*	*M2/2	*	*M2/2	*M2/2	*	*M2/2	*
*met(c|)	*	*met(c|)	*	*met(c|)	*	*met(c|)	*	*met(c|)	*	*met(c|)	*met(c|)	*	*met(c|)	*
*	*	*	*	*	*below	*	*	*	*	*	*	*	*	*
=1	=1	=1	=1	=1	=1	=1	=1	=1	=1	=1	=1	=1	=1	=1
!LO:TX:t=P:problem:brak źródła od 1 do 110 taktu	!	!LO:TX:rj:a:t=allo	!	!LO:TX:rj:a:t=allo	!	!LO:TX:a:t=allegro	!	!LO:TX:a:t=allegro	!	!LO:TX:a:t=Rosa Tacet	!LO:TX:a:t=allo	!	!LO:TX:a:t=allo	!
1ryy	.	4.B/	.	4.g/	p	00r	.	00r	.	1ryy	4G/	.	4g\	f
.	.	.	.	.	.	.	.	.	.	.	4r	.	4r	.
.	.	8B/	.	8g/	.	.	.	.	.	.	.	.	.	.
.	.	8A/L	.	8f#/L	.	.	.	.	.	.	2r	.	2r	.
.	.	8B/	.	8g/	.	.	.	.	.	.	.	.	.	.
.	.	8A/	.	8f#/	.	.	.	.	.	.	.	.	.	.
.	.	8B/J	.	8g/J	.	.	.	.	.	.	.	.	.	.
=2	=2	=2	=2	=2	=2	=2	=2	=2	=2	=2	=2	=2	=2	=2
1ryy	.	8c/	.	8a/	.	.	.	.	.	1ryy	1r	.	1r	.
.	.	4c/	.	4a/	.	.	.	.	.	.	.	.	.	.
.	.	4c/	.	4a/	.	.	.	.	.	.	.	.	.	.
.	.	4c/	.	4a/	.	.	.	.	.	.	.	.	.	.
.	.	8c/	.	8a/	.	.	.	.	.	.	.	.	.	.
=3	=3	=3	=3	=3	=3	=3	=3	=3	=3	=3	=3	=3	=3	=3
1ryy	.	4.g/	.	4.b/	.	.	.	.	.	1ryy	4G/	.	4g\	.
.	.	.	.	.	.	.	.	.	.	.	4r	.	4r	.
.	.	8g/	.	8b/	.	.	.	.	.	.	.	.	.	.
.	.	8f#/L	.	8a/L	.	.	.	.	.	.	2r	.	2r	.
.	.	8g/	.	8b/	.	.	.	.	.	.	.	.	.	.
.	.	8f#/	.	8a/	.	.	.	.	.	.	.	.	.	.
.	.	8g/J	.	8b/J	.	.	.	.	.	.	.	.	.	.
=4	=4	=4	=4	=4	=4	=4	=4	=4	=4	=4	=4	=4	=4	=4
1ryy	.	8a/	.	8cc/	.	.	.	.	.	1ryy	1r	.	1r	.
.	.	4a/	.	4cc/	.	.	.	.	.	.	.	.	.	.
.	.	4a/	.	4cc/	.	.	.	.	.	.	.	.	.	.
.	.	4a/	.	4cc/	.	.	.	.	.	.	.	.	.	.
.	.	8a/	.	8cc/	.	.	.	.	.	.	.	.	.	.
!	!	!	!	!	!	!	!	!	!	!	!	!	!LO:LB:g=original	!
=5	=5	=5	=5	=5	=5	=5	=5	=5	=5	=5	=5	=5	=5	=5
1ryy	.	4.b/	.	4.dd\	<	00r	.	00r	.	1ryy	4G/	.	4g\	.
.	.	.	.	.	.	.	.	.	.	.	4r	.	4r	.
.	.	8b/	.	8dd\	.	.	.	.	.	.	.	.	.	.
.	.	8g/L	.	8b\L	.	.	.	.	.	.	2r	.	2r	.
.	.	8g/	.	8b\	.	.	.	.	.	.	.	.	.	.
.	.	8a/	.	8cc\	.	.	.	.	.	.	.	.	.	.
.	.	8a/J	.	8cc\J	.	.	.	.	.	.	.	.	.	.
!	!	!	!	!LO:LB:g=original	!	!	!	!	!	!	!	!	!	!
=6	=6	=6	=6	=6	=6	=6	=6	=6	=6	=6	=6	=6	=6	=6
*	*	*tremolo	*	*	*	*	*	*	*	*	*	*	*	*
1ryy	.	16b/LL	.	16dd\LL	.	.	.	.	.	1ryy	1r	.	1r	.
.	.	16b/	.	16dd\	.	.	.	.	.	.	.	.	.	.
.	.	16b/	.	16dd\	.	.	.	.	.	.	.	.	.	.
.	.	16b/JJ	.	16dd\JJ	.	.	.	.	.	.	.	.	.	.
*	*	*	*	*tremolo	*	*	*	*	*	*	*	*	*	*
.	.	16g/LL	.	16b\LL	.	.	.	.	.	.	.	.	.	.
.	.	16g/	.	16b\	.	.	.	.	.	.	.	.	.	.
.	.	16g/	.	16b\	.	.	.	.	.	.	.	.	.	.
.	.	16g/JJ	.	16b\JJ	.	.	.	.	.	.	.	.	.	.
.	.	16a/LL	.	16cc\LL	.	.	.	.	.	.	.	.	.	.
.	.	16a/	.	16cc\	.	.	.	.	.	.	.	.	.	.
.	.	16a/	.	16cc\	.	.	.	.	.	.	.	.	.	.
.	.	16a/JJ	.	16cc\JJ	.	.	.	.	.	.	.	.	.	.
.	.	16b/LL	.	16dd\LL	.	.	.	.	.	.	.	.	.	.
.	.	16b/	.	16dd\	.	.	.	.	.	.	.	.	.	.
.	.	16b/	.	16dd\	.	.	.	.	.	.	.	.	.	.
.	.	16b/JJ	.	16dd\JJ	.	.	.	.	.	.	.	.	.	.
*	*	*Xtremolo	*	*Xtremolo	*	*	*	*	*	*	*	*	*	*
=7	=7	=7	=7	=7	=7	=7	=7	=7	=7	=7	=7	=7	=7	=7
1ryy	.	4.cc\	.	4.ee\	.	.	.	.	.	1ryy	4G/	.	4g\	.
.	.	.	.	.	.	.	.	.	.	.	4r	.	4r	.
.	.	8cc\	.	8ee\	.	.	.	.	.	.	.	.	.	.
.	.	8a\L	.	8cc\L	.	.	.	.	.	.	2r	.	2r	.
.	.	8a\	.	8cc\	.	.	.	.	.	.	.	.	.	.
.	.	8b\	.	8dd\	.	.	.	.	.	.	.	.	.	.
.	.	8b\J	.	8dd\J	.	.	.	.	.	.	.	.	.	.
!	!	!LO:LB:g=original	!	!	!	!	!	!	!	!	!	!	!	!
=8	=8	=8	=8	=8	=8	=8	=8	=8	=8	=8	=8	=8	=8	=8
*	*	*tremolo	*	*tremolo	*	*	*	*	*	*	*	*	*	*
1ryy	.	16cc\LL	.	16ee\LL	.	.	.	.	.	1ryy	1r	.	1r	.
.	.	16cc\	.	16ee\	.	.	.	.	.	.	.	.	.	.
.	.	16cc\	.	16ee\	.	.	.	.	.	.	.	.	.	.
.	.	16cc\JJ	.	16ee\JJ	.	.	.	.	.	.	.	.	.	.
.	.	16a\LL	.	16cc\LL	.	.	.	.	.	.	.	.	.	.
.	.	16a\	.	16cc\	.	.	.	.	.	.	.	.	.	.
.	.	16a\	.	16cc\	.	.	.	.	.	.	.	.	.	.
.	.	16a\JJ	.	16cc\JJ	.	.	.	.	.	.	.	.	.	.
.	.	16b\LL	.	16dd\LL	.	.	.	.	.	.	.	.	.	.
.	.	16b\	.	16dd\	.	.	.	.	.	.	.	.	.	.
.	.	16b\	.	16dd\	.	.	.	.	.	.	.	.	.	.
.	.	16b\JJ	.	16dd\JJ	.	.	.	.	.	.	.	.	.	.
.	.	16cc\LL	.	16ee\LL	.	.	.	.	.	.	.	.	.	.
.	.	16cc\	.	16ee\	.	.	.	.	.	.	.	.	.	.
.	.	16cc\	.	16ee\	.	.	.	.	.	.	.	.	.	.
.	.	16cc\JJ	.	16ee\JJ	.	.	.	.	.	.	.	.	.	.
*	*	*	*	*Xtremolo	*	*	*	*	*	*	*	*	*	*
!	!	!	!	!	!	!	!	!	!	!	!LO:LB:g=original	!	!	!
=9	=9	=9	=9	=9	=9	=9	=9	=9	=9	=9	=9	=9	=9	=9
*	*	*	*	*2\right	*	*	*	*	*	*	*2\right	*	*2\right	*
1ryy	.	16a/LL	.	2ff#\ 2a\	f	00r	.	00r	.	1ryy	2a\	.	2cc\	.
.	.	16a/	.	.	.	.	.	.	.	.	.	.	.	.
.	.	16a/	.	.	.	.	.	.	.	.	.	.	.	.
.	.	16a/	.	.	.	.	.	.	.	.	.	.	.	.
.	.	16a/	.	.	.	.	.	.	.	.	.	.	.	.
.	.	16a/	.	.	.	.	.	.	.	.	.	.	.	.
.	.	16a/	.	.	.	.	.	.	.	.	.	.	.	.
.	.	16a/JJ	.	.	.	.	.	.	.	.	.	.	.	.
.	.	16cc/LL	.	4aa\ 4a\	.	.	.	.	.	.	4d\	.	4a\	.
.	.	16cc/	.	.	.	.	.	.	.	.	.	.	.	.
.	.	16cc/	.	.	.	.	.	.	.	.	.	.	.	.
.	.	16cc/JJ	.	.	.	.	.	.	.	.	.	.	.	.
.	.	16a/LL	.	4ff#\ 4a\	.	.	.	.	.	.	4a\	.	4cc\	.
.	.	16a/	.	.	.	.	.	.	.	.	.	.	.	.
.	.	16a/	.	.	.	.	.	.	.	.	.	.	.	.
.	.	16a/JJ	.	.	.	.	.	.	.	.	.	.	.	.
*	*	*Xtremolo	*	*	*	*	*	*	*	*	*	*	*	*
=10	=10	=10	=10	=10	=10	=10	=10	=10	=10	=10	=10	=10	=10	=10
1ryy	.	16b/LL	.	16gg\LL	.	.	.	.	.	1ryy	4g\	.	4b\	.
.	.	16b/	.	16gg\	.	.	.	.	.	.	.	.	.	.
.	.	16dd/	.	16bb\	.	.	.	.	.	.	.	.	.	.
.	.	16dd/JJ	.	16bb\JJ	.	.	.	.	.	.	.	.	.	.
.	.	16b/LL	.	16gg\LL	.	.	.	.	.	.	4r	.	4r	.
.	.	16b/	.	16gg\	.	.	.	.	.	.	.	.	.	.
.	.	16b/	.	16dd\	.	.	.	.	.	.	.	.	.	.
.	.	16b/JJ	.	16dd\JJ	.	.	.	.	.	.	.	.	.	.
.	.	16g/LL	.	16b\LL	.	.	.	.	.	.	2r	.	2r	.
.	.	16g/	.	16b\	.	.	.	.	.	.	.	.	.	.
.	.	16b/	.	16dd\	.	.	.	.	.	.	.	.	.	.
.	.	16b/JJ	.	16dd\JJ	.	.	.	.	.	.	.	.	.	.
.	.	16g/LL	.	16b\LL	.	.	.	.	.	.	.	.	.	.
.	.	16g/	.	16b\	.	.	.	.	.	.	.	.	.	.
.	.	16d/	.	16g\	.	.	.	.	.	.	.	.	.	.
.	.	16d/JJ	.	16g\JJ	.	.	.	.	.	.	.	.	.	.
=11	=11	=11	=11	=11	=11	=11	=11	=11	=11	=11	=11	=11	=11	=11
*	*	*tremolo	*	*	*	*	*	*	*	*	*	*	*	*
1ryy	.	16a/LL	.	2ff#\ 2a\	.	.	.	.	.	1ryy	2a\	.	2cc\	.
.	.	16a/	.	.	.	.	.	.	.	.	.	.	.	.
.	.	16a/	.	.	.	.	.	.	.	.	.	.	.	.
.	.	16a/	.	.	.	.	.	.	.	.	.	.	.	.
.	.	16a/	.	.	.	.	.	.	.	.	.	.	.	.
.	.	16a/	.	.	.	.	.	.	.	.	.	.	.	.
.	.	16a/	.	.	.	.	.	.	.	.	.	.	.	.
.	.	16a/JJ	.	.	.	.	.	.	.	.	.	.	.	.
.	.	16cc/LL	.	4aa\ 4a\	.	.	.	.	.	.	4d\	.	4a\	.
.	.	16cc/	.	.	.	.	.	.	.	.	.	.	.	.
.	.	16cc/	.	.	.	.	.	.	.	.	.	.	.	.
.	.	16cc/JJ	.	.	.	.	.	.	.	.	.	.	.	.
.	.	16a/LL	.	4ff#\ 4a\	.	.	.	.	.	.	4a\	.	4cc\	.
.	.	16a/	.	.	.	.	.	.	.	.	.	.	.	.
.	.	16a/	.	.	.	.	.	.	.	.	.	.	.	.
.	.	16a/JJ	.	.	.	.	.	.	.	.	.	.	.	.
*	*	*Xtremolo	*	*	*	*	*	*	*	*	*	*	*	*
=12	=12	=12	=12	=12	=12	=12	=12	=12	=12	=12	=12	=12	=12	=12
1ryy	.	16b/LL	.	16gg\LL	.	.	.	.	.	1ryy	4g\	.	4b\	.
.	.	16b/	.	16gg\	.	.	.	.	.	.	.	.	.	.
.	.	16dd/	.	16bb\	.	.	.	.	.	.	.	.	.	.
.	.	16dd/JJ	.	16bb\JJ	.	.	.	.	.	.	.	.	.	.
!	!	!	!	!LO:LB:g=original	!	!	!	!	!	!	!	!	!	!
.	.	16b/LL	.	16gg\LL	.	.	.	.	.	.	4r	.	4r	.
.	.	16b/	.	16gg\	.	.	.	.	.	.	.	.	.	.
.	.	16b/	.	16dd\	.	.	.	.	.	.	.	.	.	.
.	.	16b/JJ	.	16dd\JJ	.	.	.	.	.	.	.	.	.	.
.	.	16g/LL	.	16b\LL	.	.	.	.	.	.	2r	.	2r	.
.	.	16g/	.	16b\	.	.	.	.	.	.	.	.	.	.
.	.	16b/	.	16dd\	.	.	.	.	.	.	.	.	.	.
.	.	16b/JJ	.	16dd\JJ	.	.	.	.	.	.	.	.	.	.
.	.	16g/LL	.	16b/LL	.	.	.	.	.	.	.	.	.	.
.	.	16g/	.	16b/	.	.	.	.	.	.	.	.	.	.
.	.	16d/	.	16g/	.	.	.	.	.	.	.	.	.	.
.	.	16d/JJ	.	16g/JJ	.	.	.	.	.	.	.	.	.	.
=13	=13	=13	=13	=13	=13	=13	=13	=13	=13	=13	=13	=13	=13	=13
*	*	*tremolo	*	*	*	*	*	*	*	*	*	*	*	*
1ryy	.	16a/LL	.	2ff#\ 2a\	.	00r	.	00r	.	1ryy	2a\	.	2cc\	.
.	.	16a/	.	.	.	.	.	.	.	.	.	.	.	.
.	.	16a/	.	.	.	.	.	.	.	.	.	.	.	.
.	.	16a/	.	.	.	.	.	.	.	.	.	.	.	.
.	.	16a/	.	.	.	.	.	.	.	.	.	.	.	.
.	.	16a/	.	.	.	.	.	.	.	.	.	.	.	.
.	.	16a/	.	.	.	.	.	.	.	.	.	.	.	.
.	.	16a/JJ	.	.	.	.	.	.	.	.	.	.	.	.
.	.	16cc/LL	.	4aa\ 4a\	.	.	.	.	.	.	4d/	.	4a\	.
.	.	16cc/	.	.	.	.	.	.	.	.	.	.	.	.
.	.	16cc/	.	.	.	.	.	.	.	.	.	.	.	.
.	.	16cc/JJ	.	.	.	.	.	.	.	.	.	.	.	.
.	.	16a/LL	.	4ff#\ 4a\	.	.	.	.	.	.	4a\	.	4cc\	.
.	.	16a/	.	.	.	.	.	.	.	.	.	.	.	.
.	.	16a/	.	.	.	.	.	.	.	.	.	.	.	.
.	.	16a/JJ	.	.	.	.	.	.	.	.	.	.	.	.
*	*	*Xtremolo	*	*	*	*	*	*	*	*	*	*	*	*
=14	=14	=14	=14	=14	=14	=14	=14	=14	=14	=14	=14	=14	=14	=14
1ryy	.	8g/L	.	16gg\LL	.	.	.	.	.	1ryy	4g\	.	4b\	.
.	.	.	.	16gg\	.	.	.	.	.	.	.	.	.	.
.	.	8dd/	.	16dd\	.	.	.	.	.	.	.	.	.	.
.	.	.	.	16dd\JJ	.	.	.	.	.	.	.	.	.	.
.	.	8b/	.	16b\LL	.	.	.	.	.	.	4r	.	4r	.
.	.	.	.	16b\	.	.	.	.	.	.	.	.	.	.
.	.	8g/J	.	16g\	.	.	.	.	.	.	.	.	.	.
.	.	.	.	16g\JJ	.	.	.	.	.	.	.	.	.	.
!	!	!LO:LB:g=original	!	!	!	!	!	!	!	!	!	!	!	!
.	.	8e/L	.	16e/LL	.	.	.	.	.	.	2r	.	2r	.
.	.	.	.	16e/	.	.	.	.	.	.	.	.	.	.
.	.	8g/	.	16g/	.	.	.	.	.	.	.	.	.	.
.	.	.	.	16g/JJ	.	.	.	.	.	.	.	.	.	.
.	.	8e/	.	16e/LL	.	.	.	.	.	.	.	.	.	.
.	.	.	.	16e/	.	.	.	.	.	.	.	.	.	.
.	.	8c#X/J	.	16c#X/	.	.	.	.	.	.	.	.	.	.
.	.	.	.	16c#/JJ	.	.	.	.	.	.	.	.	.	.
=15	=15	=15	=15	=15	=15	=15	=15	=15	=15	=15	=15	=15	=15	=15
1ryy	.	4d/	.	4d/	.	.	.	.	.	1ryy	4d/	.	4dd\	.
.	.	4f#/ 4A/	.	4dd/ 4f#/	.	.	.	.	.	.	8D/L	.	8.d/L	.
.	.	.	.	.	.	.	.	.	.	.	8D/J	.	.	.
.	.	.	.	.	.	.	.	.	.	.	.	.	16d/Jk	.
.	.	4f#/ 4A/	.	4dd/ 4f#/	.	.	.	.	.	.	4D/	.	4d/	.
.	.	4r	.	4r	.	.	.	.	.	.	4r	.	4r	.
!	!	!	!	!	!	!	!	!	!	!	!	!	!LO:LB:g=original	!
=16	=16	=16	=16	=16	=16	=16	=16	=16	=16	=16	=16	=16	=16	=16
!	!	!	!LO:DY:rj	!	!	!	!	!	!	!	!	!	!	!
1ryy	.	8B/L	p	4gg\	.	.	.	.	.	1ryy	00r	.	00r	.
.	.	8d/	.	.	.	.	.	.	.	.	.	.	.	.
.	.	8g/	.	4gg\	.	.	.	.	.	.	.	.	.	.
.	.	8d/J	.	.	.	.	.	.	.	.	.	.	.	.
.	.	.	.	8qqaa/	.	.	.	.	.	.	.	.	.	.
.	.	2r	.	8gg\L	.	.	.	.	.	.	.	.	.	.
.	.	.	.	8ff#\	.	.	.	.	.	.	.	.	.	.
.	.	.	.	8gg\	.	.	.	.	.	.	.	.	.	.
.	.	.	.	8bb\J	.	.	.	.	.	.	.	.	.	.
=17	=17	=17	=17	=17	=17	=17	=17	=17	=17	=17	=17	=17	=17	=17
1ryy	.	8c/L	.	2aa\	.	00r	.	00r	.	1ryy	.	.	.	.
.	.	8d/	.	.	.	.	.	.	.	.	.	.	.	.
.	.	8f#/	.	.	.	.	.	.	.	.	.	.	.	.
.	.	8d/J	.	.	.	.	.	.	.	.	.	.	.	.
.	.	2r	.	8gg\L	.	.	.	.	.	.	.	.	.	.
.	.	.	.	8ff#\	.	.	.	.	.	.	.	.	.	.
.	.	.	.	8ee\	.	.	.	.	.	.	.	.	.	.
.	.	.	.	8dd\J	.	.	.	.	.	.	.	.	.	.
!	!	!	!	!LO:LB:g=original	!	!	!	!	!	!	!	!	!	!
=18	=18	=18	=18	=18	=18	=18	=18	=18	=18	=18	=18	=18	=18	=18
1ryy	.	8B/L	.	4dd\	.	.	.	.	.	1ryy	.	.	.	.
.	.	8d/	.	.	.	.	.	.	.	.	.	.	.	.
.	.	8g/	.	2ddd\	.	.	.	.	.	.	.	.	.	.
.	.	8d/J	.	.	.	.	.	.	.	.	.	.	.	.
.	.	2r	.	.	.	.	.	.	.	.	.	.	.	.
.	.	.	.	8bb\L	.	.	.	.	.	.	.	.	.	.
.	.	.	.	8ddd\J	.	.	.	.	.	.	.	.	.	.
=19	=19	=19	=19	=19	=19	=19	=19	=19	=19	=19	=19	=19	=19	=19
1ryy	.	8c/L	.	8ccc\L	.	.	.	.	.	1ryy	.	.	.	.
.	.	8d/	.	8bb\	.	.	.	.	.	.	.	.	.	.
.	.	8f#/	.	8aa\	.	.	.	.	.	.	.	.	.	.
.	.	8d/J	.	8gg\J	.	.	.	.	.	.	.	.	.	.
.	.	2r	.	8ff#\L	.	.	.	.	.	.	.	.	.	.
.	.	.	.	8gg\	.	.	.	.	.	.	.	.	.	.
.	.	.	.	8aa\	.	.	.	.	.	.	.	.	.	.
.	.	.	.	8ff#\J	.	.	.	.	.	.	.	.	.	.
=20	=20	=20	=20	=20	=20	=20	=20	=20	=20	=20	=20	=20	=20	=20
1ryy	.	8B/L	.	4gg\	.	.	.	.	.	1ryy	00r	.	00r	.
.	.	8d/	.	.	.	.	.	.	.	.	.	.	.	.
.	.	8g/	.	4gg\	.	.	.	.	.	.	.	.	.	.
.	.	8d/J	.	.	.	.	.	.	.	.	.	.	.	.
.	.	.	.	8qqaa/	.	.	.	.	.	.	.	.	.	.
.	.	2r	.	8gg\L	.	.	.	.	.	.	.	.	.	.
.	.	.	.	8ff#\	.	.	.	.	.	.	.	.	.	.
.	.	.	.	8gg\	.	.	.	.	.	.	.	.	.	.
.	.	.	.	8bb\J	.	.	.	.	.	.	.	.	.	.
=21	=21	=21	=21	=21	=21	=21	=21	=21	=21	=21	=21	=21	=21	=21
1ryy	.	8c/L	.	2aa\	.	00r	.	00r	.	1ryy	.	.	.	.
.	.	8d/	.	.	.	.	.	.	.	.	.	.	.	.
.	.	8f#/	.	.	.	.	.	.	.	.	.	.	.	.
.	.	8d/J	.	.	.	.	.	.	.	.	.	.	.	.
.	.	2r	.	8gg\L	.	.	.	.	.	.	.	.	.	.
.	.	.	.	8ff#\	.	.	.	.	.	.	.	.	.	.
.	.	.	.	8ee\	.	.	.	.	.	.	.	.	.	.
.	.	.	.	8dd\J	.	.	.	.	.	.	.	.	.	.
=22	=22	=22	=22	=22	=22	=22	=22	=22	=22	=22	=22	=22	=22	=22
1ryy	.	8B/L	.	4dd\	.	.	.	.	.	1ryy	.	.	.	.
.	.	8d/	.	.	.	.	.	.	.	.	.	.	.	.
.	.	8g/	.	2ddd\	.	.	.	.	.	.	.	.	.	.
.	.	8d/J	.	.	.	.	.	.	.	.	.	.	.	.
.	.	2r	.	.	.	.	.	.	.	.	.	.	.	.
.	.	.	.	8bb\L	.	.	.	.	.	.	.	.	.	.
.	.	.	.	8ddd\J	.	.	.	.	.	.	.	.	.	.
!	!	!LO:LB:g=original	!	!	!	!	!	!	!	!	!	!	!	!
=23	=23	=23	=23	=23	=23	=23	=23	=23	=23	=23	=23	=23	=23	=23
1ryy	.	8c/L	.	8ccc\L	.	.	.	.	.	1ryy	.	.	.	.
.	.	8d/	.	8bb\	.	.	.	.	.	.	.	.	.	.
.	.	8f#/	.	8aa\	.	.	.	.	.	.	.	.	.	.
.	.	8d/J	.	8gg\J	.	.	.	.	.	.	.	.	.	.
.	.	2r	.	8ff#\L	.	.	.	.	.	.	.	.	.	.
.	.	.	.	8gg\	.	.	.	.	.	.	.	.	.	.
.	.	.	.	8aa\	.	.	.	.	.	.	.	.	.	.
.	.	.	.	8ff#\J	.	.	.	.	.	.	.	.	.	.
=24	=24	=24	=24	=24	=24	=24	=24	=24	=24	=24	=24	=24	=24	=24
*	*	*tremolo	*	*	*	*	*	*	*	*	*	*	*	*
1ryy	.	16g/LL	.	16gg\LL	.	.	.	.	.	1ryy	4G/	.	4g\	.
.	.	16g/	.	16gg\	.	.	.	.	.	.	.	.	.	.
.	.	16g/	.	16gg\	.	.	.	.	.	.	.	.	.	.
.	.	16g/JJ	.	16gg\JJ	.	.	.	.	.	.	.	.	.	.
.	.	16b/LL	.	16bb\LL	.	.	.	.	.	.	4B/	.	4b\	.
.	.	16b/	.	16bb\	.	.	.	.	.	.	.	.	.	.
.	.	16b/	.	16bb\	.	.	.	.	.	.	.	.	.	.
.	.	16b/JJ	.	16bb\JJ	.	.	.	.	.	.	.	.	.	.
!	!	!	!	!LO:LB:g=original	!	!	!	!	!	!	!	!	!	!
.	.	16g/LL	.	16gg\LL	.	.	.	.	.	.	4G/	.	4g\	.
.	.	16g/	.	16gg\	.	.	.	.	.	.	.	.	.	.
.	.	16g/	.	16gg\	.	.	.	.	.	.	.	.	.	.
.	.	16g/JJ	.	16gg\JJ	.	.	.	.	.	.	.	.	.	.
.	.	16d#X/LL	.	16dd#X\LL	.	.	.	.	.	.	4r	.	4r	.
.	.	16d#/	.	16dd#\	.	.	.	.	.	.	.	.	.	.
.	.	16d#/	.	16dd#\	.	.	.	.	.	.	.	.	.	.
.	.	16d#/JJ	.	16dd#\JJ	.	.	.	.	.	.	.	.	.	.
=25	=25	=25	=25	=25	=25	=25	=25	=25	=25	=25	=25	=25	=25	=25
*	*	*	*	*tremolo	*	*	*	*	*	*	*	*	*	*
1ryy	.	16e/LL	.	16ee\LL	.	00r	.	00r	.	1ryy	1r	.	1r	.
.	.	16e/	.	16ee\	.	.	.	.	.	.	.	.	.	.
.	.	16e/	.	16ee\	.	.	.	.	.	.	.	.	.	.
.	.	16e/JJ	.	16ee\JJ	.	.	.	.	.	.	.	.	.	.
.	.	16g/LL	.	16gg\LL	.	.	.	.	.	.	.	.	.	.
.	.	16g/	.	16gg\	.	.	.	.	.	.	.	.	.	.
.	.	16g/	.	16gg\	.	.	.	.	.	.	.	.	.	.
.	.	16g/JJ	.	16gg\JJ	.	.	.	.	.	.	.	.	.	.
.	.	16e/LL	.	16ee\LL	.	.	.	.	.	.	.	.	.	.
.	.	16e/	.	16ee\	.	.	.	.	.	.	.	.	.	.
.	.	16e/	.	16ee\	.	.	.	.	.	.	.	.	.	.
.	.	16e/JJ	.	16ee\JJ	.	.	.	.	.	.	.	.	.	.
.	.	16c#X/LL	.	16cc#X\LL	.	.	.	.	.	.	.	.	.	.
.	.	16c#/	.	16cc#\	.	.	.	.	.	.	.	.	.	.
.	.	16c#/	.	16cc#\	.	.	.	.	.	.	.	.	.	.
.	.	16c#/JJ	.	16cc#\JJ	.	.	.	.	.	.	.	.	.	.
!	!	!	!	!	!	!	!	!	!	!	!LO:LB:g=original	!	!	!
=26	=26	=26	=26	=26	=26	=26	=26	=26	=26	=26	=26	=26	=26	=26
1ryy	.	16b/LL 16d/	.	16dd\LL	.	.	.	.	.	1ryy	2g\	.	2b\	.
.	.	16b/ 16d/	.	16dd\	.	.	.	.	.	.	.	.	.	.
.	.	16b/ 16d/	.	16dd\	.	.	.	.	.	.	.	.	.	.
.	.	16b/ 16d/	.	16dd\JJ	.	.	.	.	.	.	.	.	.	.
.	.	16b/ 16d/	.	16gg\LL	.	.	.	.	.	.	.	.	.	.
.	.	16b/ 16d/	.	16gg\	.	.	.	.	.	.	.	.	.	.
.	.	16b/ 16d/	.	16gg\	.	.	.	.	.	.	.	.	.	.
.	.	16b/JJ 16d/	.	16gg\JJ	.	.	.	.	.	.	.	.	.	.
.	.	16cc/LL 16d/	.	16aa\LL	.	.	.	.	.	.	2d\	.	2a\	.
.	.	16cc/ 16d/	.	16aa\	.	.	.	.	.	.	.	.	.	.
.	.	16cc/ 16d/	.	16aa\	.	.	.	.	.	.	.	.	.	.
.	.	16cc/ 16d/	.	16aa\JJ	.	.	.	.	.	.	.	.	.	.
.	.	16cc/ 16d/	.	16ff#\LL	.	.	.	.	.	.	.	.	.	.
.	.	16cc/ 16d/	.	16ff#\	.	.	.	.	.	.	.	.	.	.
.	.	16cc/ 16d/	.	16ff#\	.	.	.	.	.	.	.	.	.	.
.	.	16cc/JJ 16d/	.	16ff#\JJ	.	.	.	.	.	.	.	.	.	.
=27	=27	=27	=27	=27	=27	=27	=27	=27	=27	=27	=27	=27	=27	=27
1ryy	.	16g/LL	.	16gg\LL	.	.	.	.	.	1ryy	4G/	.	4g\	.
.	.	16g/	.	16gg\	.	.	.	.	.	.	.	.	.	.
.	.	16g/	.	16gg\	.	.	.	.	.	.	.	.	.	.
.	.	16g/JJ	.	16gg\JJ	.	.	.	.	.	.	.	.	.	.
.	.	16b/LL	.	16bb\LL	.	.	.	.	.	.	4B/	.	4b\	.
.	.	16b/	.	16bb\	.	.	.	.	.	.	.	.	.	.
.	.	16b/	.	16bb\	.	.	.	.	.	.	.	.	.	.
.	.	16b/JJ	.	16bb\JJ	.	.	.	.	.	.	.	.	.	.
.	.	16g/LL	.	16gg\LL	.	.	.	.	.	.	4G/	.	4g\	.
.	.	16g/	.	16gg\	.	.	.	.	.	.	.	.	.	.
.	.	16g/	.	16gg\	.	.	.	.	.	.	.	.	.	.
.	.	16g/JJ	.	16gg\JJ	.	.	.	.	.	.	.	.	.	.
.	.	16d#X/LL	.	16dd#X\LL	.	.	.	.	.	.	4r	.	4r	.
.	.	16d#/	.	16dd#\	.	.	.	.	.	.	.	.	.	.
.	.	16d#/	.	16dd#\	.	.	.	.	.	.	.	.	.	.
.	.	16d#/JJ	.	16dd#\JJ	.	.	.	.	.	.	.	.	.	.
=28	=28	=28	=28	=28	=28	=28	=28	=28	=28	=28	=28	=28	=28	=28
1ryy	.	16e/LL	.	16ee\LL	.	.	.	.	.	1ryy	1r	.	1r	.
.	.	16e/	.	16ee\	.	.	.	.	.	.	.	.	.	.
.	.	16e/	.	16ee\	.	.	.	.	.	.	.	.	.	.
.	.	16e/JJ	.	16ee\JJ	.	.	.	.	.	.	.	.	.	.
.	.	16g/LL	.	16gg\LL	.	.	.	.	.	.	.	.	.	.
.	.	16g/	.	16gg\	.	.	.	.	.	.	.	.	.	.
.	.	16g/	.	16gg\	.	.	.	.	.	.	.	.	.	.
.	.	16g/JJ	.	16gg\JJ	.	.	.	.	.	.	.	.	.	.
.	.	16e/LL	.	16ee\LL	.	.	.	.	.	.	.	.	.	.
.	.	16e/	.	16ee\	.	.	.	.	.	.	.	.	.	.
.	.	16e/	.	16ee\	.	.	.	.	.	.	.	.	.	.
.	.	16e/JJ	.	16ee\JJ	.	.	.	.	.	.	.	.	.	.
.	.	16c#X/LL	.	16cc#X\LL	.	.	.	.	.	.	.	.	.	.
.	.	16c#/	.	16cc#\	.	.	.	.	.	.	.	.	.	.
.	.	16c#/	.	16cc#\	.	.	.	.	.	.	.	.	.	.
.	.	16c#/JJ	.	16cc#\JJ	.	.	.	.	.	.	.	.	.	.
=29	=29	=29	=29	=29	=29	=29	=29	=29	=29	=29	=29	=29	=29	=29
1ryy	.	16b/LL 16d/	.	16dd\LL	.	00r	.	00r	.	1ryy	2b\	.	2dd\	.
.	.	16b/ 16d/	.	16dd\	.	.	.	.	.	.	.	.	.	.
.	.	16b/ 16d/	.	16dd\	.	.	.	.	.	.	.	.	.	.
.	.	16b/ 16d/	.	16dd\JJ	.	.	.	.	.	.	.	.	.	.
.	.	16b/ 16d/	.	16gg\LL	.	.	.	.	.	.	.	.	.	.
.	.	16b/ 16d/	.	16gg\	.	.	.	.	.	.	.	.	.	.
.	.	16b/ 16d/	.	16gg\	.	.	.	.	.	.	.	.	.	.
.	.	16b/JJ 16d/	.	16gg\JJ	.	.	.	.	.	.	.	.	.	.
.	.	16cc/LL 16d/	.	16aa\LL	.	.	.	.	.	.	2a\	.	2cc\	.
.	.	16cc/ 16d/	.	16aa\	.	.	.	.	.	.	.	.	.	.
.	.	16cc/ 16d/	.	16aa\	.	.	.	.	.	.	.	.	.	.
.	.	16cc/ 16d/	.	16aa\JJ	.	.	.	.	.	.	.	.	.	.
.	.	16cc/ 16d/	.	16ff#X\LL	.	.	.	.	.	.	.	.	.	.
.	.	16cc/ 16d/	.	16ff#\	.	.	.	.	.	.	.	.	.	.
.	.	16cc/ 16d/	.	16ff#\	.	.	.	.	.	.	.	.	.	.
.	.	16cc/JJ 16d/	.	16ff#\JJ	.	.	.	.	.	.	.	.	.	.
*	*	*Xtremolo	*	*Xtremolo	*	*	*	*	*	*	*	*	*	*
!	!	!	!	!LO:LB:g=original	!	!	!	!	!	!	!	!	!	!
=30	=30	=30	=30	=30	=30	=30	=30	=30	=30	=30	=30	=30	=30	=30
1ryy	.	16g/LL	.	4gg\	.	.	.	.	.	1ryy	2g\	p	2b\	p
.	.	16d/	.	.	.	.	.	.	.	.	.	.	.	.
.	.	16B/	.	.	.	.	.	.	.	.	.	.	.	.
.	.	16d/JJ	.	.	.	.	.	.	.	.	.	.	.	.
.	.	16B/LL	.	8r	.	.	.	.	.	.	.	.	.	.
.	.	16d/	.	.	.	.	.	.	.	.	.	.	.	.
.	.	16B/	.	8gg\	.	.	.	.	.	.	.	.	.	.
.	.	16d/JJ	.	.	.	.	.	.	.	.	.	.	.	.
.	.	16c/LL	.	8ff#\L	.	.	.	.	.	.	2a\	.	2cc\	.
.	.	16d/	.	.	.	.	.	.	.	.	.	.	.	.
.	.	16c/	.	8gg\	.	.	.	.	.	.	.	.	.	.
.	.	16d/JJ	.	.	.	.	.	.	.	.	.	.	.	.
*	*	*rep	*	*	*	*	*	*	*	*	*	*	*	*
.	.	16c/LL	.	8aa\	.	.	.	.	.	.	.	.	.	.
.	.	16d/	.	.	.	.	.	.	.	.	.	.	.	.
.	.	16c/	.	8bb\J	.	.	.	.	.	.	.	.	.	.
.	.	16d/JJ	.	.	.	.	.	.	.	.	.	.	.	.
*	*	*Xrep	*	*	*	*	*	*	*	*	*	*	*	*
=31	=31	=31	=31	=31	=31	=31	=31	=31	=31	=31	=31	=31	=31	=31
*	*	*tremolo	*	*	*	*	*	*	*	*	*	*	*	*
1ryy	.	16B/LL	.	4gg\	.	.	.	.	.	1ryy	2g\	.	2b\	.
.	.	16d/	.	.	.	.	.	.	.	.	.	.	.	.
.	.	16B/	.	.	.	.	.	.	.	.	.	.	.	.
.	.	16d/	.	.	.	.	.	.	.	.	.	.	.	.
.	.	16B/	.	8r	.	.	.	.	.	.	.	.	.	.
.	.	16d/	.	.	.	.	.	.	.	.	.	.	.	.
.	.	16B/	.	8gg\	.	.	.	.	.	.	.	.	.	.
.	.	16d/JJ	.	.	.	.	.	.	.	.	.	.	.	.
!	!	!LO:LB:g=original	!	!LO:LB:g=original	!	!	!	!	!	!	!	!	!	!
.	.	16c/LL	.	8ff#\L	.	.	.	.	.	.	2a\	.	2cc\	.
.	.	16d/	.	.	.	.	.	.	.	.	.	.	.	.
.	.	16c/	.	8gg\	.	.	.	.	.	.	.	.	.	.
.	.	16d/	.	.	.	.	.	.	.	.	.	.	.	.
.	.	16c/	.	8aa\	.	.	.	.	.	.	.	.	.	.
.	.	16d/	.	.	.	.	.	.	.	.	.	.	.	.
.	.	16c/	.	8bb\J	.	.	.	.	.	.	.	.	.	.
.	.	16d/JJ	.	.	.	.	.	.	.	.	.	.	.	.
*	*	*Xtremolo	*	*	*	*	*	*	*	*	*	*	*	*
=32	=32	=32	=32	=32	=32	=32	=32	=32	=32	=32	=32	=32	=32	=32
1ryy	.	4B/	.	4gg/ 4b/ 4d/	.	.	.	.	.	1ryy	4g\	.	4b\	.
.	.	4b/ 4d/ 4G/	.	4gg/ 4b/ 4d/	.	.	.	.	.	.	8B/L	.	8g\L	.
.	.	.	.	.	.	.	.	.	.	.	8B/J	.	8g\J	.
.	.	4b/ 4d/ 4G/	.	4gg/ 4b/ 4d/	.	.	.	.	.	.	4G/	.	4g\	.
.	.	4r	.	4r	.	.	.	.	.	.	4r	.	4r	.
=33	=33	=33	=33	=33	=33	=33	=33	=33	=33	=33	=33	=33	=33	=33
!	!	!	!	!	!	!LO:TX:rj:a:t=Solo	!	!	!	!	!	!	!	!
1ryy	.	4.d/	p	4.b/	p	(4.B\	Ma-	(4.d\	Ma-	1ryy	0r	.	0r	.
.	.	8c/	.	8a/	.	8A\)	.	8c\)	.	.	.	.	.	.
.	.	4B/	.	4g/	.	4G\	-ter	4B\	-ter	.	.	.	.	.
.	.	4B/	.	4g/	.	4G\	a-	4B\	a-	.	.	.	.	.
=34	=34	=34	=34	=34	=34	=34	=34	=34	=34	=34	=34	=34	=34	=34
1ryy	.	4.B/	.	4.g/	.	4.G\	-ma-	4.B\	-ma-	1ryy	.	.	.	.
.	.	8c/	.	8a/	.	8A\	-bi-	8c\	-bi-	.	.	.	.	.
*	*	*	*	*	*	*2\right	*	*2\right	*	*	*	*	*	*
.	.	2d/	.	2b/	.	2B\	-lis	2d\	-lis	.	.	.	.	.
=35	=35	=35	=35	=35	=35	=35	=35	=35	=35	=35	=35	=35	=35	=35
1ryy	.	4c/	.	4a/	.	4A\	ma-	4c\	ma-	1ryy	1r	.	1r	.
.	.	4c/	.	4a/	.	4A\	-ter	4c\	-ter	.	.	.	.	.
.	.	.	.	.	.	16qqB/	.	16qqd/	.	.	.	.	.	.
.	.	8c/L	.	8a/L	.	8A\L	ad	8c\L	ad	.	.	.	.	.
.	.	8B/	.	8g/	.	(8G\	.	8B\	.	.	.	.	.	.
.	.	8c/	.	8a/	.	8A\)	.	8c\J	.	.	.	.	.	.
.	.	8A/J	.	8f#/J	.	8F#\J	mi-	8A\	mi-	.	.	.	.	.
!	!	!	!	!	!	!	!	!	!	!	!	!	!LO:LB:g=original	!
=36	=36	=36	=36	=36	=36	=36	=36	=36	=36	=36	=36	=36	=36	=36
!	!	!	!LO:DY:rj	!	!LO:DY:rj	!	!	!	!	!	!	!	!	!LO:DY:t=for
1ryy	.	16B/LL	f	8g/L	f	8G\	-ra-	8A/	-ra-	1ryy	8g/L	f	8g/L	f
.	.	16g/	.	.	.	.	.	.	.	.	.	.	.	.
.	.	16f#/	.	16a/L	.	8GG/	-bi-	8G/	-bi-	.	8g/	.	8g/	.
.	.	16g/JJ	.	16b/JJ	.	.	.	.	.	.	.	.	.	.
.	.	16a/LL	.	16cc\LL	.	4GG/	-lis	4G/	-lis	.	8d/	.	8d/	.
.	.	16b/	.	16dd\	.	.	.	.	.	.	.	.	.	.
.	.	16cc/	.	16ee\	.	.	.	.	.	.	8B/J	.	8B/J	.
.	.	16a/JJ	.	16ff#\JJ	.	.	.	.	.	.	.	.	.	.
!	!	!	!	!LO:TX:t=P:problem:mixedbeam	!	!	!	!	!	!	!	!	!	!
.	.	8b/L	.	16gg\LL	.	2r	.	2r	.	.	4G/	.	4G/	.
.	.	.	.	16g/	.	.	.	.	.	.	.	.	.	.
.	.	8e/	.	16f#/	.	.	.	.	.	.	.	.	.	.
.	.	.	.	16e/JJ	.	.	.	.	.	.	.	.	.	.
.	.	8d/	.	4r	.	.	.	.	.	.	4r	.	4r	.
.	.	8c/J	.	.	.	.	.	.	.	.	.	.	.	.
!	!	!	!	!	!	!LO:LB:g=original	!	!LO:LB:g=original	!	!	!	!	!	!
=37	=37	=37	=37	=37	=37	=37	=37	=37	=37	=37	=37	=37	=37	=37
!	!	!	!LO:DY:rj	!	!	!	!	!	!	!	!	!	!	!
1ryy	.	4.B/	p	4.d/	p	(4.d\	Ma-	(>4.B/	ma-	1ryy	0r	.	0r	.
.	.	8A/	.	8c/	.	8c\)	.	8A/)	.	.	.	.	.	.
.	.	4G/	.	4B/	.	4B\	-ter	4G/	-ter	.	.	.	.	.
.	.	4G/	.	4B/	.	4B\	a-	4G/	a-	.	.	.	.	.
=38	=38	=38	=38	=38	=38	=38	=38	=38	=38	=38	=38	=38	=38	=38
1ryy	.	4.G/	.	4.B/	.	4.B\	-ma-	4.G/	-ma-	1ryy	.	.	.	.
.	.	8A/	.	8c/	.	8c\	-bi-	8A/	-bi-	.	.	.	.	.
.	.	2B/	.	2d/	.	2d\	-lis	2B\	-lis	.	.	.	.	.
!	!	!LO:LB:g=original	!	!LO:LB:g=original	!	!	!	!	!	!	!	!	!	!
=39	=39	=39	=39	=39	=39	=39	=39	=39	=39	=39	=39	=39	=39	=39
1ryy	.	4A/	.	4c/	.	4c\	ma-	4A/	ma-	1ryy	1r	.	1r	.
.	.	4A/	.	4c/	.	8c\L	-ter	4A/	-ter	.	.	.	.	.
.	.	.	.	.	.	8d\J	.	.	.	.	.	.	.	.
.	.	.	.	.	.	8qqd/	.	16qqB/	.	.	.	.	.	.
.	.	8A/L	.	8c/L	.	8c\L	ad	8A/L	ad	.	.	.	.	.
.	.	8B/	.	8d/	.	8B\	.	8G/	.	.	.	.	.	.
.	.	8c/	.	8e/	.	8c\	mi-	8A/J	.	.	.	.	.	.
.	.	8A/J	.	8f#/J	.	8A\J	.	8c\	mi-	.	.	.	.	.
!	!	!	!	!	!	!	!	!	!	!	!LO:LB:g=original	!	!	!
=40	=40	=40	=40	=40	=40	=40	=40	=40	=40	=40	=40	=40	=40	=40
!	!	!	!LO:DY:rj	!	!	!	!	!	!	!	!	!	!	!
1ryy	.	4c/	f	8g/L	f	8A\	-ra-	8c\	-ra-	1ryy	8g/L	.	8g/L	f
.	.	.	.	16a/L	.	8G\	-bi-	8B\	-bi-	.	8g/	.	8g/	.
.	.	.	.	16b/JJ	.	.	.	.	.	.	.	.	.	.
.	.	16B/LL	.	16cc\LL	.	4G\	-lis	4B\	-lis	.	8d/	.	8d/	.
.	.	16g/	.	16dd\	.	.	.	.	.	.	.	.	.	.
.	.	16f#/	.	16ee\	.	.	.	.	.	.	8B/J	.	8B/J	.
.	.	16g/JJ	.	16ff#\JJ	.	.	.	.	.	.	.	.	.	.
.	.	16a/LL	.	4gg\	.	2r	.	2r	.	.	4G/	.	4G/	.
.	.	16b/	.	.	.	.	.	.	.	.	.	.	.	.
.	.	16cc/	.	.	.	.	.	.	.	.	.	.	.	.
.	.	16a/JJ	.	.	.	.	.	.	.	.	.	.	.	.
.	.	4b/	.	4r	.	.	.	.	.	.	4r	.	4r	.
=41	=41	=41	=41	=41	=41	=41	=41	=41	=41	=41	=41	=41	=41	=41
!	!	!	!LO:DY:rj	!	!	!	!	!	!	!	!	!	!	!
1ryy	.	4.B/	p	4.g/	p	0r	.	4.G\	o-	1ryy	00r	.	00r	.
.	.	8c/	.	8a/	.	.	.	8A\	.	.	.	.	.	.
.	.	4d/	.	4b/	.	.	.	4B\	-ra	.	.	.	.	.
.	.	4d/	.	4b/	.	.	.	4B\	pro	.	.	.	.	.
=42	=42	=42	=42	=42	=42	=42	=42	=42	=42	=42	=42	=42	=42	=42
1ryy	.	4.d/	.	4.b/	.	.	.	4.B\	no-	1ryy	.	.	.	.
.	.	8e/	.	8cc/	.	.	.	8c\	.	.	.	.	.	.
.	.	8f#/L	.	8a/L	.	.	.	4A\	-bis	.	.	.	.	.
.	.	8g/	.	8b/	.	.	.	.	.	.	.	.	.	.
.	.	8a/	.	8cc/	.	.	.	4r	.	.	.	.	.	.
.	.	8f#/J	.	8a/J	.	.	.	.	.	.	.	.	.	.
!	!	!	!	!	!	!	!	!LO:LB:g=original	!	!	!	!	!	!
=43	=43	=43	=43	=43	=43	=43	=43	=43	=43	=43	=43	=43	=43	=43
1ryy	.	4.g/	.	4.b\	.	4.G\	o-	(4.B\	o-	1ryy	.	.	.	.
.	.	8a/	.	8cc\	.	8A\	.	8c\)	.	.	.	.	.	.
.	.	4b/	.	4dd\	.	4B\	-ra	4d\	-ra	.	.	.	.	.
.	.	4b/	.	4dd\	.	4B\	pro	4d\	pro	.	.	.	.	.
!	!	!	!	!	!	!LO:LB:g=original	!	!	!	!	!	!	!	!
=44	=44	=44	=44	=44	=44	=44	=44	=44	=44	=44	=44	=44	=44	=44
1ryy	.	4.b\	.	4.dd\	.	4.B\	no-	(4.d\	no-	1ryy	.	.	.	.
.	.	8cc\	.	8ee\	.	8c\	.	8e\)	.	.	.	.	.	.
.	.	8a/L	.	8cc\L	.	4A\	-bis	4c\	-bis	.	.	.	.	.
.	.	8f#/	.	8a\	.	.	.	.	.	.	.	.	.	.
.	.	8g/	.	8b\	.	4r	.	4r	.	.	.	.	.	.
.	.	8a/J	.	8cc\J	.	.	.	.	.	.	.	.	.	.
=45	=45	=45	=45	=45	=45	=45	=45	=45	=45	=45	=45	=45	=45	=45
*	*	*	*	*	*	*	*ij	*	*	*	*	*	*	*
1ryy	.	8g/	.	8b\L	.	2G\	o-	(4B\	o-	1ryy	00r	.	00r	.
.	.	4b/	.	8dd\	.	.	.	.	.	.	.	.	.	.
.	.	.	.	8gg\	.	.	.	4d\)	.	.	.	.	.	.
.	.	8g/	.	8dd\J	.	.	.	.	.	.	.	.	.	.
.	.	8a/L	.	8cc\L	.	4F#\	-ra	4c\	-ra	.	.	.	.	.
.	.	8f#/	.	8a\	.	.	.	.	.	.	.	.	.	.
.	.	8g/	.	8b\	.	4G\	pro	4B\	pro	.	.	.	.	.
.	.	8B/J	.	8g\J	.	.	.	.	.	.	.	.	.	.
!	!	!LO:LB:g=original	!	!LO:LB:g=original	!	!	!	!	!	!	!	!	!	!
=46	=46	=46	=46	=46	=46	=46	=46	=46	=46	=46	=46	=46	=46	=46
1ryy	.	4d/	.	4a/	.	4D\	no-	4B\	no-	1ryy	.	.	.	.
.	.	4f#/ 4d/	.	4dd/ 4f#/	.	4D\	-bis	4A\	-bis	.	.	.	.	.
*	*	*	*	*	*	*	*Xij	*	*	*	*	*	*	*
.	.	4f#/ 4d/	.	4dd/ 4f#/	.	2r	.	2r	.	.	.	.	.	.
.	.	4r	.	4r	.	.	.	.	.	.	.	.	.	.
=47	=47	=47	=47	=47	=47	=47	=47	=47	=47	=47	=47	=47	=47	=47
1ryy	.	8r	.	8r	.	4.A\	Ma-	1r	.	1ryy	.	.	.	.
.	.	8d/L	.	8f#/L	.	.	.	.	.	.	.	.	.	.
.	.	8d/	.	8f#/	.	.	.	.	.	.	.	.	.	.
.	.	8d/J	.	8f#/J	.	16B\LL	-ter	.	.	.	.	.	.	.
.	.	.	.	.	.	16c#X\JJ	.	.	.	.	.	.	.	.
.	.	8r	.	8r	.	8d\L	cre-	.	.	.	.	.	.	.
.	.	8f#/L	.	8a/L	.	8c#\J	.	.	.	.	.	.	.	.
.	.	8f#/	.	8a/	.	8B\L	-a-	.	.	.	.	.	.	.
.	.	8f#/J	.	8a/J	.	8A\J	.	.	.	.	.	.	.	.
=48	=48	=48	=48	=48	=48	=48	=48	=48	=48	=48	=48	=48	=48	=48
*	*	*	*	*	*	*	*	*	*ij	*	*	*	*	*
1ryy	.	8r	.	8r	.	8G\L	-to-	4.e\	o-	1ryy	.	.	.	.
.	.	8e/L	.	8g/L	.	8E\J	.	.	.	.	.	.	.	.
!	!	!	!	!	!	!LO:SIC:s:v=4C#	!	!	!	!	!	!	!	!
.	.	8e/	.	8g/	.	4C/	-ris	.	.	.	.	.	.	.
.	.	8e/J	.	8g/J	.	.	.	8d\	.	.	.	.	.	.
.	.	8r	.	8r	.	2r	.	8c#X\	-ra	.	.	.	.	.
.	.	8c#X/L	.	8e/L	.	.	.	8B\	pro	.	.	.	.	.
.	.	8c#/	.	8e/	.	.	.	8A/L	no-	.	.	.	.	.
.	.	8c#/J	.	8e/J	.	.	.	8G/J	.	.	.	.	.	.
=49	=49	=49	=49	=49	=49	=49	=49	=49	=49	=49	=49	=49	=49	=49
1ryy	.	8r	.	8r	.	4.A\	Ma-	4F#/	-bis	1ryy	00r	.	00r	.
.	.	8d/L	.	8f#/L	.	.	.	.	.	.	.	.	.	.
.	.	8d/	.	8f#/	.	.	.	4r	.	.	.	.	.	.
.	.	8d/J	.	8f#/J	.	16B\LL	-ter	.	.	.	.	.	.	.
.	.	.	.	.	.	16c#X\JJ	.	.	.	.	.	.	.	.
!	!	!	!	!	!	!LO:LB:g=original	!	!	!	!	!	!	!	!
.	.	8r	.	8r	.	8d\L	Sal-	2r	.	.	.	.	.	.
.	.	8f#/L	.	8a/L	.	8c#\J	.	.	.	.	.	.	.	.
.	.	8f#/	.	8a/	.	8B\L	-va-	.	.	.	.	.	.	.
.	.	8f#/J	.	8a/J	.	8A\J	.	.	.	.	.	.	.	.
=50	=50	=50	=50	=50	=50	=50	=50	=50	=50	=50	=50	=50	=50	=50
1ryy	.	8r	.	8r	.	8G\L	-to-	4.e\	o-	1ryy	.	.	.	.
.	.	8e/L	.	8g/L	.	8E\J	.	.	.	.	.	.	.	.
!	!	!	!	!	!	!LO:SIC:s:v=4C#	!	!	!	!	!	!	!	!
.	.	8e/	.	8g/	.	4C/	-ris	.	.	.	.	.	.	.
.	.	8e/J	.	8g/J	.	.	.	8d\	.	.	.	.	.	.
!	!	!	!	!	!	!	!	!LO:LB:g=original	!	!	!	!	!	!
.	.	8r	.	8r	.	2r	.	8c#X\	-ra	.	.	.	.	.
.	.	8c#X/L	.	8e/L	.	.	.	8B\	pro	.	.	.	.	.
.	.	8c#/	.	8e/	.	.	.	8A/L	no-	.	.	.	.	.
.	.	8c#/J	.	8e/J	.	.	.	8G/J	.	.	.	.	.	.
=51	=51	=51	=51	=51	=51	=51	=51	=51	=51	=51	=51	=51	=51	=51
1ryy	.	4c/	.	4f#/	.	(4D\	o-	4F#/	-bis	1ryy	.	.	.	.
*	*	*	*	*	*	*	*	*	*Xij	*	*	*	*	*
.	.	4dd/ 4d/	.	4ff#/ 4a/ 4d/	.	4d\)	.	4f#\	o-	.	.	.	.	.
.	.	2r	.	2r	.	4d\	-ra	4f#\	-ra	.	.	.	.	.
.	.	.	.	.	.	4d\	pro	4f#\	pro	.	.	.	.	.
=52	=52	=52	=52	=52	=52	=52	=52	=52	=52	=52	=52	=52	=52	=52
1ryy	.	1r	.	1r	.	8d\L	no-	8f#\L	no-	1ryy	.	.	.	.
.	.	.	.	.	.	8c\J	.	8e\J	.	.	.	.	.	.
.	.	.	.	.	.	8B\	-bis	8d\	-bis	.	.	.	.	.
.	.	.	.	.	.	8A#X\	pro	8c#X\	pro	.	.	.	.	.
.	.	.	.	.	.	8B\L	no-	8d\L	no-	.	.	.	.	.
.	.	.	.	.	.	8An\J	.	8c#\J	.	.	.	.	.	.
.	.	.	.	.	.	8G\	-bis	8B\	-bis	.	.	.	.	.
.	.	.	.	.	.	8F#\	o-	8A\	o-	.	.	.	.	.
!	!	!	!	!LO:PB:g=original	!	!	!	!	!	!	!	!	!	!
=53	=53	=53	=53	=53	=53	=53	=53	=53	=53	=53	=53	=53	=53	=53
1ryy	.	4g/	.	4b\	.	8G\L	-ra	8B\L	.	1ryy	00r	.	00r	.
.	.	.	.	.	.	8A\	.	8c\	.	.	.	.	.	.
.	.	8r	.	8r	.	8B\J	.	8d\J	-ra	.	.	.	.	.
.	.	8g/	.	8b\	.	8G\	pro	8B\	pro	.	.	.	.	.
!	!	!	!	!	!	!LO:LB:g=original	!	!	!	!	!	!	!	!
.	.	16f#/LL	.	16dd\LL	.	4F#\	no-	4A\	no-	.	.	.	.	.
.	.	16a/	.	16dd\	.	.	.	.	.	.	.	.	.	.
.	.	16f#/	.	16dd\	.	.	.	.	.	.	.	.	.	.
.	.	16a/JJ	.	16dd\JJ	.	.	.	.	.	.	.	.	.	.
!	!	!LO:LB:g=original	!	!	!	!	!	!	!	!	!	!	!	!
.	.	16e/LL	.	16cc#X\LL	.	4E\	.	4G\	.	.	.	.	.	.
.	.	16g/	.	16cc#\	.	.	.	.	.	.	.	.	.	.
.	.	16e/	.	16cc#\	.	.	.	.	.	.	.	.	.	.
.	.	16g/JJ	.	16cc#\JJ	.	.	.	.	.	.	.	.	.	.
=54	=54	=54	=54	=54	=54	=54	=54	=54	=54	=54	=54	=54	=54	=54
1ryy	.	4d/	.	4a/ 4d/	.	4D\	-bis	4F#/	-bis	1ryy	.	.	.	.
*	*	*	*	*	*	*	*	*	*ij	*	*	*	*	*
.	.	4dd/ 4d/	.	4ff#/ 4a/ 4d/	.	4d\	o-	4f#\	o-	.	.	.	.	.
.	.	2r	.	2r	.	4d\	-ra	4f#\	-ra	.	.	.	.	.
.	.	.	.	.	.	4d\	pro	4f#\	pro	.	.	.	.	.
=55	=55	=55	=55	=55	=55	=55	=55	=55	=55	=55	=55	=55	=55	=55
1ryy	.	1r	.	1r	.	8d\L	no-	8f#\L	no-	1ryy	.	.	.	.
.	.	.	.	.	.	8c\J	.	8e\J	.	.	.	.	.	.
.	.	.	.	.	.	8B\	-bis	8d\	-bis	.	.	.	.	.
*	*	*	*	*	*	*	*	*	*Xij	*	*	*	*	*
.	.	.	.	.	.	8A#X\	pro	8c#X\	pro	.	.	.	.	.
!	!	!	!	!	!	!	!	!LO:LB:g=original	!	!	!	!	!	!
.	.	.	.	.	.	8B\L	no-	8d\L	no-	.	.	.	.	.
.	.	.	.	.	.	8A#\J	.	8c#\J	.	.	.	.	.	.
.	.	.	.	.	.	8G\	-bis	8B\	-bis	.	.	.	.	.
.	.	.	.	.	.	8F#\	o-	8A\	o-	.	.	.	.	.
=56	=56	=56	=56	=56	=56	=56	=56	=56	=56	=56	=56	=56	=56	=56
*	*	*tremolo	*	*tremolo	*	*	*	*	*	*	*	*	*	*
1ryy	.	16g/LL	p	16b\LL	p	8G\L	-ra	8B\L	.	1ryy	.	.	.	.
.	.	16g/	.	16b\	.	.	.	.	.	.	.	.	.	.
.	.	16g/	.	16b\	.	8E\J	.	8c\	.	.	.	.	.	.
.	.	16g/	.	16b\JJ	.	.	.	.	.	.	.	.	.	.
.	.	16g/	.	16ee\LL	.	8F#\L	pro	8d\J	-ra	.	.	.	.	.
.	.	16g/	.	16ee\	.	.	.	.	.	.	.	.	.	.
.	.	16g/	.	16ee\	.	8G\J	.	8e\	pro	.	.	.	.	.
.	.	16g/JJ	.	16ee\JJ	.	.	.	.	.	.	.	.	.	.
.	.	16f#/LL	.	16dd\LL	.	4A\	no-	4d\	no-	.	.	.	.	.
.	.	16f#/	.	16dd\	.	.	.	.	.	.	.	.	.	.
.	.	16f#/	.	16dd\	.	.	.	.	.	.	.	.	.	.
.	.	16f#/JJ	.	16dd\JJ	.	.	.	.	.	.	.	.	.	.
.	.	16e/LL	.	16cc#X\LL	.	4AA/	.	4c#X\	.	.	.	.	.	.
.	.	16e/	.	16cc#\	.	.	.	.	.	.	.	.	.	.
.	.	16e/	.	16cc#\	.	.	.	.	.	.	.	.	.	.
.	.	16e/JJ	.	16cc#\JJ	.	.	.	.	.	.	.	.	.	.
*	*	*Xtremolo	*	*Xtremolo	*	*	*	*	*	*	*	*	*	*
=57	=57	=57	=57	=57	=57	=57	=57	=57	=57	=57	=57	=57	=57	=57
!	!	!	!LO:DY:rj	!	!	!	!	!	!	!	!	!	!	!
1ryy	.	4f#/ 4A/	f	4dd\	f	4D\	-bis	4d\	-bis	1ryy	4a\	.	4a\	.
.	.	4ff#/ 4a/ 4d/	.	4aa\ 4a\	.	4r	.	4r	.	.	8a\L	.	8a\L	.
.	.	.	.	.	.	.	.	.	.	.	8a\J	.	8a\J	.
.	.	4ff#/ 4a/ 4d/	.	4aa\ 4a\	.	2r	.	2r	.	.	4a\	.	4a\	.
.	.	4ff#/ 4a/ 4d/	.	4aa\ 4a\	.	.	.	.	.	.	4a\	.	4a\	.
=58	=58	=58	=58	=58	=58	=58	=58	=58	=58	=58	=58	=58	=58	=58
1ryy	.	8ee\L	.	8gg\L	.	00r	.	00r	.	1ryy	4a\	.	4a\	.
.	.	8dd\	.	8ff#\	.	.	.	.	.	.	.	.	.	.
!	!	!LO:SIC:s:v=8cc#	!	!	!	!	!	!	!	!	!	!	!	!
.	.	8cc\	.	8ee\	.	.	.	.	.	.	4r	.	4r	.
.	.	8b\J	.	8dd\J	.	.	.	.	.	.	.	.	.	.
.	.	8a/L	.	8cc#X/L	.	.	.	.	.	.	2r	.	2r	.
.	.	8g/	.	8b/	.	.	.	.	.	.	.	.	.	.
.	.	8f#/	.	8a/	.	.	.	.	.	.	.	.	.	.
.	.	8e/J	.	8g/J	.	.	.	.	.	.	.	.	.	.
=59	=59	=59	=59	=59	=59	=59	=59	=59	=59	=59	=59	=59	=59	=59
*	*	*tremolo	*	*	*	*	*	*	*	*	*	*	*	*
1ryy	.	16f#/LL 16A/	.	4f#/	.	.	.	.	.	1ryy	4a\	.	4a\	.
.	.	16f#/ 16A/	.	.	.	.	.	.	.	.	.	.	.	.
.	.	16f#/ 16A/	.	.	.	.	.	.	.	.	.	.	.	.
.	.	16f#/ 16A/	.	.	.	.	.	.	.	.	.	.	.	.
.	.	16f#/ 16A/	.	4aa\	.	.	.	.	.	.	8a\L	.	8a\L	.
.	.	16f#/ 16A/	.	.	.	.	.	.	.	.	.	.	.	.
.	.	16f#/ 16A/	.	.	.	.	.	.	.	.	8a\J	.	8a\J	.
.	.	16f#/JJ 16A/	.	.	.	.	.	.	.	.	.	.	.	.
.	.	16f#/LL 16A/	.	16gg#X\LL	.	.	.	.	.	.	4a\	.	4a\	.
.	.	16f#/ 16A/	.	16aa\	.	.	.	.	.	.	.	.	.	.
.	.	16f#/ 16A/	.	16bb\	.	.	.	.	.	.	.	.	.	.
.	.	16f#/ 16A/	.	16aa\JJ	.	.	.	.	.	.	.	.	.	.
.	.	16f#/ 16A/	.	16ggn\LL	.	.	.	.	.	.	4a\	.	4r	.
.	.	16f#/ 16A/	.	16aa\	.	.	.	.	.	.	.	.	.	.
.	.	16f#/ 16A/	.	16ff#\	.	.	.	.	.	.	.	.	.	.
.	.	16f#/JJ 16A/	.	16aa\JJ	.	.	.	.	.	.	.	.	.	.
!	!	!	!	!LO:LB:g=original	!	!	!	!	!	!	!	!	!	!
=60	=60	=60	=60	=60	=60	=60	=60	=60	=60	=60	=60	=60	=60	=60
1ryy	.	16g/LL 16A/	.	8gg\L	.	.	.	.	.	1ryy	4a\	.	4a\	.
.	.	16g/ 16A/	.	.	.	.	.	.	.	.	.	.	.	.
.	.	16g/ 16A/	.	8ff#\	.	.	.	.	.	.	.	.	.	.
.	.	16g/ 16A/	.	.	.	.	.	.	.	.	.	.	.	.
.	.	16g/ 16A/	.	8ee\	.	.	.	.	.	.	4r	.	4r	.
.	.	16g/ 16A/	.	.	.	.	.	.	.	.	.	.	.	.
.	.	16g/ 16A/	.	8dd\J	.	.	.	.	.	.	.	.	.	.
.	.	16g/JJ 16A/	.	.	.	.	.	.	.	.	.	.	.	.
!	!	!	!	!LO:SIC:s:v=8cc#	!	!	!	!	!	!	!	!	!	!
.	.	16g/LL 16A/	.	8cc\L	.	.	.	.	.	.	2r	.	2r	.
.	.	16g/ 16A/	.	.	.	.	.	.	.	.	.	.	.	.
.	.	16g/ 16A/	.	8b\	.	.	.	.	.	.	.	.	.	.
.	.	16g/JJ 16A/	.	.	.	.	.	.	.	.	.	.	.	.
.	.	16e/LL 16A/	.	8a\	.	.	.	.	.	.	.	.	.	.
.	.	16e/ 16A/	.	.	.	.	.	.	.	.	.	.	.	.
.	.	16e/ 16A/	.	8g\J	.	.	.	.	.	.	.	.	.	.
.	.	16e/JJ 16A/	.	.	.	.	.	.	.	.	.	.	.	.
*	*	*Xtremolo	*	*	*	*	*	*	*	*	*	*	*	*
=61	=61	=61	=61	=61	=61	=61	=61	=61	=61	=61	=61	=61	=61	=61
1ryy	.	16f#/LL	.	16f#/LL	.	.	.	.	.	1ryy	1r	.	1r	.
.	.	16d/	.	16d/	.	.	.	.	.	.	.	.	.	.
.	.	16e/	.	16e/	.	.	.	.	.	.	.	.	.	.
.	.	16f#/JJ	.	16f#/JJ	.	.	.	.	.	.	.	.	.	.
.	.	16g/LL	.	16g/LL	.	.	.	.	.	.	.	.	.	.
.	.	16a/	.	16a/	.	.	.	.	.	.	.	.	.	.
.	.	16b/	.	16b/	.	.	.	.	.	.	.	.	.	.
.	.	16cc/JJ	.	16cc/JJ	.	.	.	.	.	.	.	.	.	.
!	!	!LO:TX:t=P:problem:mixedbeam	!	!	!	!	!	!	!	!	!	!	!	!
.	.	8dd\L	.	8dd\L	.	.	.	.	.	.	.	.	.	.
.	.	8c/	.	8ee\	.	.	.	.	.	.	.	.	.	.
.	.	8d/	.	8ff#\	.	.	.	.	.	.	.	.	.	.
.	.	8e/J	.	8gg\J	.	.	.	.	.	.	.	.	.	.
!	!	!LO:LB:g=original	!	!	!	!	!	!	!	!	!	!	!	!
=62	=62	=62	=62	=62	=62	=62	=62	=62	=62	=62	=62	=62	=62	=62
*	*	*	*	*tremolo	*	*	*	*	*	*	*	*	*	*
1ryy	.	16f#/LL	.	16aa\LL	.	00r	.	00r	.	1ryy	2d/	.	2a\	.
.	.	16a/ 16d/	.	16aa\	.	.	.	.	.	.	.	.	.	.
.	.	16a/ 16d/	.	16aa\	.	.	.	.	.	.	.	.	.	.
.	.	16a/JJ 16d/	.	16aa\JJ	.	.	.	.	.	.	.	.	.	.
*	*	*tremolo	*	*	*	*	*	*	*	*	*	*	*	*
.	.	16a/LL 16d/	.	16ddd\LL	.	.	.	.	.	.	.	.	.	.
.	.	16a/ 16d/	.	16ddd\	.	.	.	.	.	.	.	.	.	.
.	.	16a/ 16d/	.	16ddd\	.	.	.	.	.	.	.	.	.	.
.	.	16a/JJ 16d/	.	16ddd\JJ	.	.	.	.	.	.	.	.	.	.
.	.	16b/LL 16d/	.	16bb\LL	.	.	.	.	.	.	2g\	.	2b\	.
.	.	16b/ 16d/	.	16bb\	.	.	.	.	.	.	.	.	.	.
.	.	16b/ 16d/	.	16bb\	.	.	.	.	.	.	.	.	.	.
.	.	16b/ 16d/	.	16bb\JJ	.	.	.	.	.	.	.	.	.	.
.	.	16b/ 16d/	.	16ddd\LL	.	.	.	.	.	.	.	.	.	.
.	.	16b/ 16d/	.	16ddd\	.	.	.	.	.	.	.	.	.	.
.	.	16b/ 16d/	.	16ddd\	.	.	.	.	.	.	.	.	.	.
.	.	16b/JJ 16d/	.	16ddd\JJ	.	.	.	.	.	.	.	.	.	.
*	*	*	*	*Xtremolo	*	*	*	*	*	*	*	*	*	*
!	!	!	!	!	!	!	!	!	!	!	!	!	!LO:LB:g=original	!
=63	=63	=63	=63	=63	=63	=63	=63	=63	=63	=63	=63	=63	=63	=63
1ryy	.	16f#/LL 16A/	.	4.aa\	.	.	.	.	.	1ryy	4a\	.	4a\	.
.	.	16f#/ 16A/	.	.	.	.	.	.	.	.	.	.	.	.
.	.	16f#/ 16A/	.	.	.	.	.	.	.	.	.	.	.	.
.	.	16f#/ 16A/	.	.	.	.	.	.	.	.	.	.	.	.
.	.	16f#/ 16A/	.	.	.	.	.	.	.	.	4r	.	4r	.
.	.	16f#/ 16A/	.	.	.	.	.	.	.	.	.	.	.	.
.	.	16f#/ 16A/	.	16ff#\LL	.	.	.	.	.	.	.	.	.	.
.	.	16f#/JJ 16A/	.	16dd\JJ	.	.	.	.	.	.	.	.	.	.
.	.	16g/LL 16A/	.	8cc#X\L	.	.	.	.	.	.	2r	.	2r	.
.	.	16g/ 16A/	.	.	.	.	.	.	.	.	.	.	.	.
.	.	16g/ 16A/	.	8dd\	.	.	.	.	.	.	.	.	.	.
.	.	16g/ 16A/	.	.	.	.	.	.	.	.	.	.	.	.
.	.	16g/ 16A/	.	8ee\	.	.	.	.	.	.	.	.	.	.
.	.	16g/ 16A/	.	.	.	.	.	.	.	.	.	.	.	.
.	.	16g/ 16A/	.	8cc#\J	.	.	.	.	.	.	.	.	.	.
.	.	16g/JJ 16A/	.	.	.	.	.	.	.	.	.	.	.	.
!	!	!	!	!	!	!	!	!	!	!	!LO:LB:g=original	!	!	!
=64	=64	=64	=64	=64	=64	=64	=64	=64	=64	=64	=64	=64	=64	=64
*	*	*	*	*tremolo	*	*	*	*	*	*	*	*	*	*
1ryy	.	16a/LL 16d/	.	16dd\LL	.	.	.	.	.	1ryy	2d/	.	2a\	.
.	.	16a/ 16d/	.	16dd\	.	.	.	.	.	.	.	.	.	.
.	.	16a/ 16d/	.	16dd\	.	.	.	.	.	.	.	.	.	.
.	.	16a/ 16d/	.	16dd\JJ	.	.	.	.	.	.	.	.	.	.
.	.	16a/ 16d/	.	16ddd\LL	.	.	.	.	.	.	.	.	.	.
.	.	16a/ 16d/	.	16ddd\	.	.	.	.	.	.	.	.	.	.
.	.	16a/ 16d/	.	16ddd\	.	.	.	.	.	.	.	.	.	.
.	.	16a/JJ 16d/	.	16ddd\JJ	.	.	.	.	.	.	.	.	.	.
.	.	16a/LL 16d/	.	16bb\LL	.	.	.	.	.	.	2g\	.	2b\	.
.	.	16a/ 16d/	.	16bb\	.	.	.	.	.	.	.	.	.	.
.	.	16a/ 16d/	.	16bb\	.	.	.	.	.	.	.	.	.	.
.	.	16a/ 16d/	.	16bb\JJ	.	.	.	.	.	.	.	.	.	.
.	.	16a/ 16d/	.	16ddd\LL	.	.	.	.	.	.	.	.	.	.
.	.	16a/ 16d/	.	16ddd\	.	.	.	.	.	.	.	.	.	.
.	.	16a/ 16d/	.	16ddd\	.	.	.	.	.	.	.	.	.	.
.	.	16a/JJ 16d/	.	16ddd\JJ	.	.	.	.	.	.	.	.	.	.
*	*	*	*	*Xtremolo	*	*	*	*	*	*	*	*	*	*
=65	=65	=65	=65	=65	=65	=65	=65	=65	=65	=65	=65	=65	=65	=65
1ryy	.	16f#/LL 16A/	.	4.aa\	.	.	.	.	.	1ryy	4a\	.	4a\	.
.	.	16f#/ 16A/	.	.	.	.	.	.	.	.	.	.	.	.
.	.	16f#/ 16A/	.	.	.	.	.	.	.	.	.	.	.	.
.	.	16f#/ 16A/	.	.	.	.	.	.	.	.	.	.	.	.
.	.	16f#/ 16A/	.	.	.	.	.	.	.	.	4r	.	4r	.
.	.	16f#/ 16A/	.	.	.	.	.	.	.	.	.	.	.	.
.	.	16f#/ 16A/	.	16ff#\LL	.	.	.	.	.	.	.	.	.	.
.	.	16f#/JJ 16A/	.	16dd\JJ	.	.	.	.	.	.	.	.	.	.
.	.	16g/LL 16A/	.	8cc#X\L	.	.	.	.	.	.	2r	.	2r	.
.	.	16g/ 16A/	.	.	.	.	.	.	.	.	.	.	.	.
.	.	16g/ 16A/	.	8dd\	.	.	.	.	.	.	.	.	.	.
.	.	16g/ 16A/	.	.	.	.	.	.	.	.	.	.	.	.
.	.	16g/ 16A/	.	8ee\	.	.	.	.	.	.	.	.	.	.
.	.	16g/ 16A/	.	.	.	.	.	.	.	.	.	.	.	.
.	.	16g/ 16A/	.	8ff#\J	.	.	.	.	.	.	.	.	.	.
.	.	16g/JJ 16A/	.	.	.	.	.	.	.	.	.	.	.	.
*	*	*Xtremolo	*	*	*	*	*	*	*	*	*	*	*	*
=66	=66	=66	=66	=66	=66	=66	=66	=66	=66	=66	=66	=66	=66	=66
1ryy	.	4f#/ 4A/	.	4dd\	.	00r	.	1r	.	1ryy	4D/	.	4d/	.
.	.	4f#/ 4A/	.	4ddd\ 4ff#\	.	.	.	.	.	.	8D/L	.	8.d/L	.
.	.	.	.	.	.	.	.	.	.	.	8D/J	.	.	.
.	.	.	.	.	.	.	.	.	.	.	.	.	16d/Jk	.
.	.	4f#/ 4A/	.	4ddd\ 4ff#\	.	.	.	.	.	.	4D/	.	4d/	.
.	.	4r	.	4r	.	.	.	.	.	.	4r	.	4r	.
!	!	!	!	!LO:LB:g=original	!	!	!	!	!	!	!	!	!	!
=67	=67	=67	=67	=67	=67	=67	=67	=67	=67	=67	=67	=67	=67	=67
!	!	!	!	!	!	!	!	!LO:TX:a:t=Solo	!	!	!	!	!	!
1ryy	.	4r	.	4r	.	.	.	2d\	Ma-	1ryy	00r	.	00r	.
.	.	4d/	.	4f#/	p	.	.	.	.	.	.	.	.	.
.	.	4c#X/	.	4g/	.	.	.	4c#X\	-ter	.	.	.	.	.
.	.	4d/	.	4a/	.	.	.	4d\	a-	.	.	.	.	.
=68	=68	=68	=68	=68	=68	=68	=68	=68	=68	=68	=68	=68	=68	=68
1ryy	.	4B/	.	4g/	.	.	.	8B\L	-ma-	1ryy	.	.	.	.
.	.	.	.	.	.	.	.	8d\	.	.	.	.	.	.
.	.	4c#X/	.	4e/	.	.	.	8c#X\J	.	.	.	.	.	.
.	.	.	.	.	.	.	.	8e\	-bi-	.	.	.	.	.
!	!	!	!	!	!	!	!	!LO:SIC:s:v=4d	!	!	!	!	!	!
.	.	4d/	.	4f#/	.	.	.	4d\	-lis	.	.	.	.	.
.	.	4r	.	4r	.	.	.	4r	.	.	.	.	.	.
=69	=69	=69	=69	=69	=69	=69	=69	=69	=69	=69	=69	=69	=69	=69
1ryy	.	4r	.	4r	.	.	.	4.e\	Ma-	1ryy	.	.	.	.
.	.	4e/	.	4b/	.	.	.	.	.	.	.	.	.	.
.	.	.	.	.	.	.	.	8e\	-ter	.	.	.	.	.
.	.	4e/	.	4b/	.	.	.	8B\L	ad	.	.	.	.	.
.	.	.	.	.	.	.	.	8c\	.	.	.	.	.	.
.	.	4d/ 4B/	.	4e/	.	.	.	8d\J	.	.	.	.	.	.
.	.	.	.	.	.	.	.	8e\	mi-	.	.	.	.	.
!	!	!	!	!	!	!	!	!LO:PB:g=originals	!	!	!	!	!	!
=70	=70	=70	=70	=70	=70	=70	=70	=70	=70	=70	=70	=70	=70	=70
1ryy	.	8d/L	.	4f#/	.	1r	.	8d\L	-ra-	1ryy	.	.	.	.
.	.	8c/J	.	.	.	.	.	8c\	.	.	.	.	.	.
.	.	4c/	.	4e/	.	.	.	8B\J	.	.	.	.	.	.
.	.	.	.	.	.	.	.	8A\	-bi-	.	.	.	.	.
.	.	2r	.	4e/	.	.	.	4A\	-lis	.	.	.	.	.
.	.	.	.	4r	.	.	.	4r	.	.	.	.	.	.
!	!	!	!	!	!	!LO:LB:g=original	!	!	!	!	!	!	!	!
=71	=71	=71	=71	=71	=71	=71!|:	=71	=71!|:	=71	=71	=71	=71	=71	=71
!	!	!	!	!	!	!LO:SIC:s:v=znak repetycji	!	!LO:SIC:s:v=znak repetycji	!	!	!	!	!	!
1ryy	.	8r	.	8r	.	4A\	Ma-	0r	.	1ryy	00r	.	00r	.
.	.	8e/L	.	8g/L	.	.	.	.	.	.	.	.	.	.
.	.	8e/	.	8g/	.	4A\	-ter	.	.	.	.	.	.	.
.	.	8c/J	.	8e/J	.	.	.	.	.	.	.	.	.	.
.	.	8r	.	8r	.	4B\	cre-	.	.	.	.	.	.	.
.	.	8c/L	.	8e/L	.	.	.	.	.	.	.	.	.	.
!	!	!	!	!	!	!LO:SIC:s:v=c#	!	!	!	!	!	!	!	!
.	.	8d/	.	8f#/	.	4c\	-a-	.	.	.	.	.	.	.
.	.	8e/J	.	8g/J	.	.	.	.	.	.	.	.	.	.
!	!	!LO:LB:g=original	!	!	!	!	!	!	!	!	!	!	!	!
=72	=72	=72	=72	=72	=72	=72	=72	=72	=72	=72	=72	=72	=72	=72
1ryy	.	8r	.	8r	.	2.d\	-to-	.	.	1ryy	.	.	.	.
.	.	8f#/L	.	8a/L	.	.	.	.	.	.	.	.	.	.
.	.	8f#/	.	8a/	.	.	.	.	.	.	.	.	.	.
.	.	8d/J	.	8f#/J	.	.	.	.	.	.	.	.	.	.
.	.	8r	.	8r	.	.	.	.	.	.	.	.	.	.
.	.	8f#/L	.	8a/L	.	.	.	.	.	.	.	.	.	.
.	.	8f#/	.	8a/	.	4F#\	-ris	.	.	.	.	.	.	.
.	.	8d/J	.	8f#/J	.	.	.	.	.	.	.	.	.	.
=73	=73	=73	=73	=73	=73	=73	=73	=73	=73	=73	=73	=73	=73	=73
1ryy	.	8r	.	8r	.	4G\	Ma-	4A\	Ma-	1ryy	.	.	.	.
.	.	8g/L	.	8ee\L	.	.	.	.	.	.	.	.	.	.
.	.	8g/	.	8ee\	.	4F#\	-ter	4A\	-ter	.	.	.	.	.
.	.	8e/J	.	8cc#X\J	.	.	.	.	.	.	.	.	.	.
.	.	8r	.	8r	.	4G\	sal-	4B\	cre-	.	.	.	.	.
.	.	8e/L	.	8cc#\L	.	.	.	.	.	.	.	.	.	.
.	.	8f#/	.	8dd\	.	4A\	-va-	4c\	-a-	.	.	.	.	.
.	.	8g/J	.	8ee\J	.	.	.	.	.	.	.	.	.	.
=74	=74	=74	=74	=74	=74	=74	=74	=74	=74	=74	=74	=74	=74	=74
1ryy	.	8r	.	8r	.	2F#\	-to-	2.d\	-to-	1ryy	.	.	.	.
.	.	8f#/L	.	8dd\L	.	.	.	.	.	.	.	.	.	.
.	.	8f#/	.	8dd\	.	.	.	.	.	.	.	.	.	.
.	.	8f#/J	.	8a\J	.	.	.	.	.	.	.	.	.	.
!	!	!	!	!LO:LB:g=original	!	!	!	!	!	!	!	!	!	!
.	.	8r	.	8r	.	2D\	-ris	.	.	.	.	.	.	.
.	.	8f#/L	.	8a/L	.	.	.	.	.	.	.	.	.	.
.	.	8e/	.	8g/	.	.	.	4F#/	-ris	.	.	.	.	.
.	.	8d/J	.	8f#/J	.	.	.	.	.	.	.	.	.	.
=75	=75	=75	=75	=75	=75	=75	=75	=75	=75	=75	=75	=75	=75	=75
1ryy	.	8r	.	8r	.	4A\	Ma-	4G/	ma-	1ryy	00r	.	00r	.
.	.	8e/L	.	8g/L	.	.	.	.	.	.	.	.	.	.
.	.	8e/	.	8g/	.	4A\	-ter	4F#/	-ter	.	.	.	.	.
.	.	8c/J	.	8e/J	.	.	.	.	.	.	.	.	.	.
.	.	8r	.	8r	.	4B\	cre-	4G/	sal-	.	.	.	.	.
.	.	8c/L	.	8e/L	.	.	.	.	.	.	.	.	.	.
.	.	8d/	.	8f#/	.	4c\	-a-	4A/	-va-	.	.	.	.	.
.	.	8e/J	.	8g/J	.	.	.	.	.	.	.	.	.	.
=76	=76	=76	=76	=76	=76	=76	=76	=76	=76	=76	=76	=76	=76	=76
1ryy	.	8r	.	8r	.	2d\	-to-	2F#/	-to-	1ryy	.	.	.	.
.	.	8f#/L	.	8a/L	.	.	.	.	.	.	.	.	.	.
.	.	8f#/	.	8a/	.	.	.	.	.	.	.	.	.	.
.	.	8d/J	.	8f#/J	.	.	.	.	.	.	.	.	.	.
.	.	8r	.	8r	.	2F#\	-ris	2D/	-ris	.	.	.	.	.
.	.	8f#/L	.	8a/L	.	.	.	.	.	.	.	.	.	.
.	.	8f#/	.	8a/	.	.	.	.	.	.	.	.	.	.
.	.	8d/J	.	8f#/J	.	.	.	.	.	.	.	.	.	.
!	!	!	!	!	!	!LO:LB:g=original	!	!	!	!	!	!	!	!
=77	=77	=77	=77	=77	=77	=77	=77	=77	=77	=77	=77	=77	=77	=77
1ryy	.	8r	.	8r	.	4G\	ma-	4A\	ma-	1ryy	.	.	.	.
.	.	8g/L	.	8ee\L	.	.	.	.	.	.	.	.	.	.
.	.	8g/	.	8ee\	.	4F#\	-ter	4A\	-ter	.	.	.	.	.
.	.	8e/J	.	8cc#X\J	.	.	.	.	.	.	.	.	.	.
.	.	8r	.	8r	.	4G\	cre-	4B\	cre-	.	.	.	.	.
.	.	8e/L	.	8cc#\L	.	.	.	.	.	.	.	.	.	.
.	.	8f#/	.	8dd\	.	4A\	-a-	4c\	-a-	.	.	.	.	.
.	.	8g/J	.	8ee\J	.	.	.	.	.	.	.	.	.	.
=78	=78	=78	=78	=78	=78	=78	=78	=78	=78	=78	=78	=78	=78	=78
1ryy	.	8r	.	8r	.	2F#\	-to-	2.d\	-to-	1ryy	.	.	.	.
.	.	8f#/L	.	8dd\L	.	.	.	.	.	.	.	.	.	.
.	.	8f#/	.	8dd\	.	.	.	.	.	.	.	.	.	.
.	.	8f#/J	.	8a\J	.	.	.	.	.	.	.	.	.	.
.	.	8r	.	8r	.	2D\	-ris	.	.	.	.	.	.	.
.	.	8f#/L	.	8a/L	.	.	.	.	.	.	.	.	.	.
.	.	8e/	.	8g/	.	.	.	4D/	-ris	.	.	.	.	.
.	.	8d/J	.	8f#/J	.	.	.	.	.	.	.	.	.	.
!	!	!LO:LB:g=original	!	!	!	!	!	!LO:LB:g=original	!	!	!	!	!	!
=79	=79	=79	=79	=79	=79	=79	=79	=79	=79	=79	=79	=79	=79	=79
*	*	*tremolo	*	*tremolo	*	*	*	*	*	*	*	*	*	*
1ryy	.	16g/LL	.	16b\LL	.	4G\	o-	(4B\	o-	1ryy	00r	.	00r	.
.	.	16g/	.	16b\	.	.	.	.	.	.	.	.	.	.
.	.	16g/	.	16b\	.	.	.	.	.	.	.	.	.	.
.	.	16g/JJ	.	16b\JJ	.	.	.	.	.	.	.	.	.	.
.	.	16e/LL	.	16cc#X\LL	.	4A\	.	4c\)	.	.	.	.	.	.
.	.	16e/	.	16cc#\	.	.	.	.	.	.	.	.	.	.
.	.	16e/	.	16cc#\	.	.	.	.	.	.	.	.	.	.
.	.	16e/JJ	.	16cc#\JJ	.	.	.	.	.	.	.	.	.	.
.	.	16f#/LL	.	16dd\LL	.	4B\	-ra	4d\	-ra	.	.	.	.	.
.	.	16f#/	.	16dd\	.	.	.	.	.	.	.	.	.	.
.	.	16f#/	.	16dd\	.	.	.	.	.	.	.	.	.	.
.	.	16f#/JJ	.	16dd\JJ	.	.	.	.	.	.	.	.	.	.
.	.	16a/LL	.	16ee\LL	.	4c\	pro	4e\	pro	.	.	.	.	.
.	.	16a/	.	16ee\	.	.	.	.	.	.	.	.	.	.
.	.	16a/	.	16ee\	.	.	.	.	.	.	.	.	.	.
.	.	16a/JJ	.	16ee\JJ	.	.	.	.	.	.	.	.	.	.
=80	=80	=80	=80	=80	=80	=80	=80	=80	=80	=80	=80	=80	=80	=80
1ryy	.	16a/LL	.	16ff#\LL	.	4d\	no-	4f#\	no-	1ryy	.	.	.	.
.	.	16a/	.	16ff#\	.	.	.	.	.	.	.	.	.	.
.	.	16a/	.	16ff#\	.	.	.	.	.	.	.	.	.	.
.	.	16a/JJ	.	16ff#\JJ	.	.	.	.	.	.	.	.	.	.
.	.	16f#/LL	.	16cc#X\LL	.	4A#X\	.	4c#X\	.	.	.	.	.	.
.	.	16f#/	.	16cc#\	.	.	.	.	.	.	.	.	.	.
.	.	16f#/	.	16cc#\	.	.	.	.	.	.	.	.	.	.
.	.	16f#/JJ	.	16cc#\JJ	.	.	.	.	.	.	.	.	.	.
.	.	16f#/LL	.	16dd\LL	.	4B\	-bis	4d\	-bis	.	.	.	.	.
.	.	16f#/	.	16dd\	.	.	.	.	.	.	.	.	.	.
.	.	16f#/	.	16dd\	.	.	.	.	.	.	.	.	.	.
.	.	16f#/JJ	.	16dd\JJ	.	.	.	.	.	.	.	.	.	.
*	*	*Xtremolo	*	*Xtremolo	*	*	*	*	*	*	*	*	*	*
.	.	16g/LL	.	16b\LL	.	4G\	pro	8B\L	pro	.	.	.	.	.
.	.	16g/	.	16b\	.	.	.	.	.	.	.	.	.	.
.	.	16b/	.	16ee\	.	.	.	8e\J	.	.	.	.	.	.
.	.	16b/JJ	.	16ee\JJ	.	.	.	.	.	.	.	.	.	.
!	!	!	!	!LO:LB:g=original	!	!	!	!	!	!	!	!	!	!
=81	=81	=81	=81	=81	=81	=81	=81	=81	=81	=81	=81	=81	=81	=81
*	*	*tremolo	*	*tremolo	*	*	*	*	*	*	*	*	*	*
1ryy	.	16f#/LL 16A/	.	16dd/LL 16f#/	.	2A\	no-	2d\	no-	1ryy	.	.	.	.
.	.	16f#/ 16A/	.	16dd/ 16f#/	.	.	.	.	.	.	.	.	.	.
.	.	16f#/ 16A/	.	16dd/ 16f#/	.	.	.	.	.	.	.	.	.	.
.	.	16f#/ 16A/	.	16dd/ 16f#/	.	.	.	.	.	.	.	.	.	.
.	.	16f#/ 16A/	.	16dd/ 16f#/	.	.	.	.	.	.	.	.	.	.
.	.	16f#/ 16A/	.	16dd/ 16f#/	.	.	.	.	.	.	.	.	.	.
.	.	16f#/ 16A/	.	16dd/ 16f#/	.	.	.	.	.	.	.	.	.	.
.	.	16f#/JJ 16A/	.	16dd/JJ 16f#/	.	.	.	.	.	.	.	.	.	.
!	!	!	!	!LO:SIC:s:v=16cc#	!	!	!	!LO:SIC:s:v=2c#	!	!	!	!	!	!
.	.	16g/LL 16A/	.	16cc/LL 16e/	.	2AA/	.	2cT\	.	.	.	.	.	.
!	!	!	!	!LO:SIC:s:v=16cc#	!	!	!	!	!	!	!	!	!	!
.	.	16g/ 16A/	.	16cc/ 16e/	.	.	.	.	.	.	.	.	.	.
!	!	!	!	!LO:SIC:s:v=16cc#	!	!	!	!	!	!	!	!	!	!
.	.	16g/ 16A/	.	16cc/ 16e/	.	.	.	.	.	.	.	.	.	.
!	!	!	!	!LO:SIC:s:v=16cc#	!	!	!	!	!	!	!	!	!	!
.	.	16g/ 16A/	.	16cc/ 16e/	.	.	.	.	.	.	.	.	.	.
!	!	!	!	!LO:SIC:s:v=16cc#	!	!	!	!	!	!	!	!	!	!
.	.	16g/ 16A/	.	16cc/ 16e/	.	.	.	.	.	.	.	.	.	.
!	!	!	!	!LO:SIC:s:v=16cc#	!	!	!	!	!	!	!	!	!	!
.	.	16g/ 16A/	.	16cc/ 16e/	.	.	.	.	.	.	.	.	.	.
!	!	!	!	!LO:SIC:s:v=16cc#	!	!	!	!	!	!	!	!	!	!
.	.	16g/ 16A/	.	16cc/ 16e/	.	.	.	.	.	.	.	.	.	.
!	!	!	!	!LO:SIC:s:v=16cc#	!	!	!	!	!	!	!	!	!	!
.	.	16g/JJ 16A/	.	16cc/JJ 16e/	.	.	.	.	.	.	.	.	.	.
*	*	*Xtremolo	*	*Xtremolo	*	*	*	*	*	*	*	*	*	*
=82	=82	=82	=82	=82	=82	=82	=82	=82	=82	=82	=82	=82	=82	=82
!	!	!	!LO:DY:t=for.	!	!	!	!	!	!	!	!	!	!	!
1ryy	.	8f#/L 8A/	f	8dd\L	f	4D\	-bis	4d\	-bis	1ryy	.	.	.	.
.	.	8d/	.	8d/	.	.	.	.	.	.	.	.	.	.
.	.	8d/	.	8d/	.	4r	.	4r	.	.	.	.	.	.
.	.	8d/J	.	8d/J	.	.	.	.	.	.	.	.	.	.
!	!	!	!	!	!	!LO:SIC:s:v=znak repetycji	!	!LO:SIC:o:v= znak repetycji	!	!	!	!	!	!
.	.	4d/	.	4d/	.	2r	.	2r	.	.	.	.	.	.
.	.	4r	.	4r	.	.	.	.	.	.	.	.	.	.
=83	=83	=83	=83	=83	=83	=83:|!	=83	=83:|!	=83	=83	=83	=83	=83	=83
!	!	!	!	!	!	!LO:SIC:s:v=w taktach 83 - 94 rozpisana repetycja ze względu na rozpisaną repetycję w instrumentach	!	!LO:SIC:s:v=w taktach 83 - 94 rozpisana repetycja ze względu na rozpisaną repetycję w instrumentach	!	!	!	!	!	!
1ryy	.	8r	.	8r	p	4A\yy	Ma-	0ryy	.	1ryy	00r	.	00r	.
.	.	8e/L	p	8g/L	.	.	.	.	.	.	.	.	.	.
.	.	8e/	.	8g/	.	4A\yy	-ter	.	.	.	.	.	.	.
!	!	!LO:SIC:s:v=8c#	!	!	!	!	!	!	!	!	!	!	!	!
!	!	!LO:SIC:s:v=8c#	!	!	!	!	!	!	!	!	!	!	!	!
.	.	8c/J	.	8e/J	.	.	.	.	.	.	.	.	.	.
.	.	8r	.	8r	.	4B\yy	cre-	.	.	.	.	.	.	.
.	.	8c/L	.	8e/L	.	.	.	.	.	.	.	.	.	.
!	!	!	!	!	!	!LO:SIC:s:v=4c#	!	!	!	!	!	!	!	!
.	.	8d/	.	8f#/	.	4c\yy	-a-	.	.	.	.	.	.	.
.	.	8e/J	.	8g/J	.	.	.	.	.	.	.	.	.	.
=84	=84	=84	=84	=84	=84	=84	=84	=84	=84	=84	=84	=84	=84	=84
1ryy	.	8r	.	8r	.	2.d\yy	-to-	.	.	1ryy	.	.	.	.
.	.	8f#/L	.	8a/L	.	.	.	.	.	.	.	.	.	.
.	.	8f#/	.	8a/	.	.	.	.	.	.	.	.	.	.
.	.	8d/J	.	8f#/J	.	.	.	.	.	.	.	.	.	.
.	.	8r	.	8r	.	.	.	.	.	.	.	.	.	.
.	.	8f#/L	.	8a/L	.	.	.	.	.	.	.	.	.	.
.	.	8f#/	.	8a/	.	4F#\yy	-ris	.	.	.	.	.	.	.
.	.	8d/J	.	8f#/J	.	.	.	.	.	.	.	.	.	.
=85	=85	=85	=85	=85	=85	=85	=85	=85	=85	=85	=85	=85	=85	=85
1ryy	.	8r	.	8r	.	4G\yy	Ma-	4A\yy	Ma-	1ryy	.	.	.	.
.	.	8g/L	.	8ee\L	.	.	.	.	.	.	.	.	.	.
.	.	8g/	.	8ee\	.	4F#\yy	-ter	4A\yy	-ter	.	.	.	.	.
.	.	8e/J	.	8cc#X\J	.	.	.	.	.	.	.	.	.	.
.	.	8r	.	8r	.	4G\yy	sal-	4B\yy	cre-	.	.	.	.	.
.	.	8e/L	.	8cc#\L	.	.	.	.	.	.	.	.	.	.
!	!	!	!	!	!	!	!	!LO:SIC:s:v=4c#	!	!	!	!	!	!
.	.	8f#/	.	8dd\	.	4A\yy	-va-	4c\yy	-a-	.	.	.	.	.
.	.	8g/J	.	8ee\J	.	.	.	.	.	.	.	.	.	.
=86	=86	=86	=86	=86	=86	=86	=86	=86	=86	=86	=86	=86	=86	=86
1ryy	.	8r	.	8r	.	2F#\yy	-to-	2.d\yy	-to-	1ryy	.	.	.	.
.	.	8f#/L	.	8dd\L	.	.	.	.	.	.	.	.	.	.
.	.	8f#/	.	8dd\	.	.	.	.	.	.	.	.	.	.
.	.	8f#/J	.	8a\J	.	.	.	.	.	.	.	.	.	.
!	!	!LO:LB:g=original	!	!	!	!	!	!	!	!	!	!	!	!
.	.	8r	.	8r	.	2D\yy	-ris	.	.	.	.	.	.	.
.	.	8f#/L	.	8a/L	.	.	.	.	.	.	.	.	.	.
.	.	8e/	.	8g/	.	.	.	4F#/yy	-ris	.	.	.	.	.
.	.	8d/J	.	8f#/J	.	.	.	.	.	.	.	.	.	.
=87	=87	=87	=87	=87	=87	=87	=87	=87	=87	=87	=87	=87	=87	=87
1ryy	.	8r	.	8r	.	4A\yy	Ma-	4G/yy	ma-	1ryy	00r	.	00r	.
.	.	8e/L	.	8g/L	.	.	.	.	.	.	.	.	.	.
.	.	8e/	.	8g/	.	4A\yy	-ter	4F#/yy	-ter	.	.	.	.	.
!	!	!LO:SIC:s:v=8c#	!	!	!	!	!	!	!	!	!	!	!	!
.	.	8c/J	.	8e/J	.	.	.	.	.	.	.	.	.	.
!	!	!	!	!LO:LB:g=original	!	!	!	!	!	!	!	!	!	!
.	.	8r	.	8r	.	4B\yy	cre-	4G/yy	sal-	.	.	.	.	.
!	!	!LO:SIC:s:v=8c#	!	!	!	!	!	!	!	!	!	!	!	!
.	.	8c/L	.	8e/L	.	.	.	.	.	.	.	.	.	.
!	!	!	!	!	!	!LO:SIC:s:v=4c#	!	!	!	!	!	!	!	!
.	.	8d/	.	8f#/	.	4c\yy	-a-	4A/yy	-va-	.	.	.	.	.
.	.	8e/J	.	8g/J	.	.	.	.	.	.	.	.	.	.
=88	=88	=88	=88	=88	=88	=88	=88	=88	=88	=88	=88	=88	=88	=88
1ryy	.	8r	.	8r	.	2d\yy	-to-	2F#/yy	-to-	1ryy	.	.	.	.
.	.	8f#/L	.	8a/L	.	.	.	.	.	.	.	.	.	.
.	.	8f#/	.	8a/	.	.	.	.	.	.	.	.	.	.
.	.	8d/J	.	8f#/J	.	.	.	.	.	.	.	.	.	.
.	.	8r	.	8r	.	2F#\yy	-ris	2D/yy	-ris	.	.	.	.	.
.	.	8f#/L	.	8a/L	.	.	.	.	.	.	.	.	.	.
.	.	8f#/	.	8a/	.	.	.	.	.	.	.	.	.	.
.	.	8d/J	.	8f#/J	.	.	.	.	.	.	.	.	.	.
!	!	!	!	!	!	!LO:LB:g=original	!	!	!	!	!	!	!	!
=89	=89	=89	=89	=89	=89	=89	=89	=89	=89	=89	=89	=89	=89	=89
1ryy	.	8r	.	8r	.	4G\yy	ma-	4A\yy	ma-	1ryy	.	.	.	.
.	.	8g/L	.	8ee\L	.	.	.	.	.	.	.	.	.	.
.	.	8g/	.	8ee\	.	4F#\yy	-ter	4A\yy	-ter	.	.	.	.	.
.	.	8e/J	.	8cc#X\J	.	.	.	.	.	.	.	.	.	.
.	.	8r	.	8r	.	4G\yy	cre-	4B\yy	cre-	.	.	.	.	.
.	.	8e/L	.	8cc#\L	.	.	.	.	.	.	.	.	.	.
.	.	8f#/	.	8dd\	.	4A\yy	-a-	4c\yy	-a-	.	.	.	.	.
.	.	8g/J	.	8ee\J	.	.	.	.	.	.	.	.	.	.
=90	=90	=90	=90	=90	=90	=90	=90	=90	=90	=90	=90	=90	=90	=90
1ryy	.	8r	.	8r	.	2F#\yy	-to-	2.d\yy	-to-	1ryy	.	.	.	.
.	.	8f#/L	.	8dd\L	.	.	.	.	.	.	.	.	.	.
.	.	8f#/	.	8dd\	.	.	.	.	.	.	.	.	.	.
.	.	8f#/J	.	8a\J	.	.	.	.	.	.	.	.	.	.
.	.	8r	.	8r	.	2D\yy	-ris	.	.	.	.	.	.	.
.	.	8f#/L	.	8a/L	.	.	.	.	.	.	.	.	.	.
.	.	8e/	.	8g/	.	.	.	4D/yy	-ris	.	.	.	.	.
.	.	8d/J	.	8f#/J	.	.	.	.	.	.	.	.	.	.
=91	=91	=91	=91	=91	=91	=91	=91	=91	=91	=91	=91	=91	=91	=91
*	*	*tremolo	*	*tremolo	*	*	*	*	*	*	*	*	*	*
1ryy	.	16g/LL	.	16b\LL	.	4G\yy	o-	(yy4B\yy	o-	1ryy	0r	.	0r	.
.	.	16g/	.	16b\	.	.	.	.	.	.	.	.	.	.
.	.	16g/	.	16b\	.	.	.	.	.	.	.	.	.	.
.	.	16g/JJ	.	16b\JJ	.	.	.	.	.	.	.	.	.	.
.	.	16e/LL	.	16cc#X\LL	.	4A\yy	.	4c\)yy	.	.	.	.	.	.
.	.	16e/	.	16cc#\	.	.	.	.	.	.	.	.	.	.
.	.	16e/	.	16cc#\	.	.	.	.	.	.	.	.	.	.
.	.	16e/JJ	.	16cc#\JJ	.	.	.	.	.	.	.	.	.	.
.	.	16f#/LL	.	16dd\LL	.	4B\yy	-ra	4d\yy	-ra	.	.	.	.	.
.	.	16f#/	.	16dd\	.	.	.	.	.	.	.	.	.	.
.	.	16f#/	.	16dd\	.	.	.	.	.	.	.	.	.	.
.	.	16f#/JJ	.	16dd\JJ	.	.	.	.	.	.	.	.	.	.
.	.	16a/LL	.	16ee\LL	.	4c\yy	pro	4e\yy	pro	.	.	.	.	.
.	.	16a/	.	16ee\	.	.	.	.	.	.	.	.	.	.
.	.	16a/	.	16ee\	.	.	.	.	.	.	.	.	.	.
.	.	16a/JJ	.	16ee\JJ	.	.	.	.	.	.	.	.	.	.
=92	=92	=92	=92	=92	=92	=92	=92	=92	=92	=92	=92	=92	=92	=92
1ryy	.	16a/LL	.	16ff#\LL	.	4d\yy	no-	4f#\yy	no-	1ryy	.	.	.	.
.	.	16a/	.	16ff#\	.	.	.	.	.	.	.	.	.	.
.	.	16a/	.	16ff#\	.	.	.	.	.	.	.	.	.	.
.	.	16a/JJ	.	16ff#\JJ	.	.	.	.	.	.	.	.	.	.
.	.	16f#/LL	.	16cc#X\LL	.	4A#X\yy	.	4c#X\yy	.	.	.	.	.	.
.	.	16f#/	.	16cc#\	.	.	.	.	.	.	.	.	.	.
.	.	16f#/	.	16cc#\	.	.	.	.	.	.	.	.	.	.
.	.	16f#/JJ	.	16cc#\JJ	.	.	.	.	.	.	.	.	.	.
.	.	16f#/LL	.	16dd\LL	.	4B\yy	-bis	4d\yy	-bis	.	.	.	.	.
.	.	16f#/	.	16dd\	.	.	.	.	.	.	.	.	.	.
.	.	16f#/	.	16dd\	.	.	.	.	.	.	.	.	.	.
.	.	16f#/JJ	.	16dd\JJ	.	.	.	.	.	.	.	.	.	.
*	*	*Xtremolo	*	*Xtremolo	*	*	*	*	*	*	*	*	*	*
.	.	16g/LL	.	16b\LL	.	4G\yy	pro	8B\Lyy	pro	.	.	.	.	.
.	.	16g/	.	16b\	.	.	.	.	.	.	.	.	.	.
.	.	16b/	.	16ee\	.	.	.	8e\Jyy	.	.	.	.	.	.
.	.	16b/JJ	.	16ee\JJ	.	.	.	.	.	.	.	.	.	.
=93	=93	=93	=93	=93	=93	=93	=93	=93	=93	=93	=93	=93	=93	=93
*	*	*tremolo	*	*tremolo	*	*	*	*	*	*	*	*	*	*
1ryy	.	16f#/LL 16A/	.	16dd\LL 16f#\	.	2A\yy	no-	2d\yy	no-	1ryy	1r	.	1r	.
.	.	16f#/ 16A/	.	16dd\ 16f#\	.	.	.	.	.	.	.	.	.	.
.	.	16f#/ 16A/	.	16dd\ 16f#\	.	.	.	.	.	.	.	.	.	.
.	.	16f#/ 16A/	.	16dd\ 16f#\	.	.	.	.	.	.	.	.	.	.
.	.	16f#/ 16A/	.	16dd\ 16f#\	.	.	.	.	.	.	.	.	.	.
.	.	16f#/ 16A/	.	16dd\ 16f#\	.	.	.	.	.	.	.	.	.	.
.	.	16f#/ 16A/	.	16dd\ 16f#\	.	.	.	.	.	.	.	.	.	.
.	.	16f#/JJ 16A/	.	16dd\JJ 16f#\	.	.	.	.	.	.	.	.	.	.
!	!	!	!	!LO:SIC:s:v=16cc#	!	!	!	!LO:SIC:s:v=2c#	!	!	!	!	!	!
.	.	16g/LL 16A/	.	16cc\LL 16e\	.	2AA/yy	.	2cTyy\yy	.	.	.	.	.	.
!	!	!	!	!LO:SIC:s:v=16cc#	!	!	!	!	!	!	!	!	!	!
.	.	16g/ 16A/	.	16cc\ 16e\	.	.	.	.	.	.	.	.	.	.
!	!	!	!	!LO:SIC:s:v=16cc#	!	!	!	!	!	!	!	!	!	!
.	.	16g/ 16A/	.	16cc\ 16e\	.	.	.	.	.	.	.	.	.	.
!	!	!	!	!LO:SIC:s:v=16cc#	!	!	!	!	!	!	!	!	!	!
.	.	16g/ 16A/	.	16cc\ 16e\	.	.	.	.	.	.	.	.	.	.
!	!	!	!	!LO:SIC:s:v=16cc#	!	!	!	!	!	!	!	!	!	!
.	.	16g/ 16A/	.	16cc\ 16e\	.	.	.	.	.	.	.	.	.	.
!	!	!	!	!LO:SIC:s:v=16cc#	!	!	!	!	!	!	!	!	!	!
.	.	16g/ 16A/	.	16cc\ 16e\	.	.	.	.	.	.	.	.	.	.
!	!	!	!	!LO:SIC:s:v=16cc#	!	!	!	!	!	!	!	!	!	!
.	.	16g/ 16A/	.	16cc\ 16e\	.	.	.	.	.	.	.	.	.	.
!	!	!	!	!LO:SIC:s:v=16cc#	!	!	!	!	!	!	!	!	!	!
.	.	16g/JJ 16A/	.	16cc\JJ 16e\	.	.	.	.	.	.	.	.	.	.
*	*	*	*	*Xtremolo	*	*	*	*	*	*	*	*	*	*
!	!	!LO:LB:g=original	!	!LO:LB:g=original	!	!	!	!	!	!	!	!	!	!
=94	=94	=94	=94	=94	=94	=94	=94	=94	=94	=94	=94	=94	=94	=94
!	!	!	!LO:DY:rj	!	!LO:DY:rj	!	!	!	!	!	!LO:TX:a:t=Tutti	!	!LO:TX:a:t=Tutti	!
1ryy	.	16f#/LL 16A/	f	4dd\	f	4D\yy	-bis	4d\yy	-bis	1ryy	4D/	.	4d/	.
.	.	16f#/ 16A/	.	.	.	.	.	.	.	.	.	.	.	.
.	.	16f#/ 16A/	.	.	.	.	.	.	.	.	.	.	.	.
.	.	16f#/ 16A/	.	.	.	.	.	.	.	.	.	.	.	.
.	.	16f#/ 16A/	.	4ddd\ 4dd\	.	4ryy	.	4ryy	.	.	8d/L	.	8dd\L	.
.	.	16f#/ 16A/	.	.	.	.	.	.	.	.	.	.	.	.
.	.	16f#/ 16A/	.	.	.	.	.	.	.	.	8d/J	.	8dd\J	.
.	.	16f#/ 16A/	.	.	.	.	.	.	.	.	.	.	.	.
.	.	16f#/ 16A/	.	4ddd\ 4dd\	.	2ryy	.	2ryy	.	.	4d/	.	4dd\	.
.	.	16f#/ 16A/	.	.	.	.	.	.	.	.	.	.	.	.
.	.	16f#/ 16A/	.	.	.	.	.	.	.	.	.	.	.	.
.	.	16f#/ 16A/	.	.	.	.	.	.	.	.	.	.	.	.
.	.	16f#/ 16A/	.	4ddd\ 4dd\	.	.	.	.	.	.	4r	.	4r	.
.	.	16f#/ 16A/	.	.	.	.	.	.	.	.	.	.	.	.
.	.	16f#/ 16A/	.	.	.	.	.	.	.	.	.	.	.	.
.	.	16f#/JJ 16A/	.	.	.	.	.	.	.	.	.	.	.	.
=95	=95	=95	=95	=95	=95	=95	=95	=95	=95	=95	=95	=95	=95	=95
!	!	!	!	!	!	!	!	!	!	!	!LO:TX:a:t=Verte Cito	!	!	!
1ryy	.	16g/LL 16A/	.	8ccc#X\L	.	00r	.	00r	.	1ryy	1r	.	1r	.
.	.	16g/ 16A/	.	.	.	.	.	.	.	.	.	.	.	.
.	.	16g/ 16A/	.	8bb\	.	.	.	.	.	.	.	.	.	.
.	.	16g/ 16A/	.	.	.	.	.	.	.	.	.	.	.	.
.	.	16g/ 16A/	.	8aa\	.	.	.	.	.	.	.	.	.	.
.	.	16g/ 16A/	.	.	.	.	.	.	.	.	.	.	.	.
.	.	16g/ 16A/	.	8gg\J	.	.	.	.	.	.	.	.	.	.
.	.	16g/ 16A/	.	.	.	.	.	.	.	.	.	.	.	.
.	.	16g/ 16A/	.	8ff#\L	.	.	.	.	.	.	.	.	.	.
.	.	16g/ 16A/	.	.	.	.	.	.	.	.	.	.	.	.
.	.	16g/ 16A/	.	8ee\	.	.	.	.	.	.	.	.	.	.
.	.	16g/ 16A/	.	.	.	.	.	.	.	.	.	.	.	.
.	.	16g/ 16A/	.	8gg\	.	.	.	.	.	.	.	.	.	.
.	.	16g/ 16A/	.	.	.	.	.	.	.	.	.	.	.	.
.	.	16g/ 16A/	.	8ee\J	.	.	.	.	.	.	.	.	.	.
.	.	16g/JJ 16A/	.	.	.	.	.	.	.	.	.	.	.	.
!	!	!	!	!	!	!	!	!	!	!	!LO:PB:g=original	!	!	!
=96	=96	=96	=96	=96	=96	=96	=96	=96	=96	=96	=96	=96	=96	=96
1ryy	.	16d/LL 16A/	.	4dd\	.	.	.	.	.	1ryy	4D/	.	4d/	.
.	.	16d/ 16A/	.	.	.	.	.	.	.	.	.	.	.	.
.	.	16d/ 16A/	.	.	.	.	.	.	.	.	.	.	.	.
.	.	16d/ 16A/	.	.	.	.	.	.	.	.	.	.	.	.
.	.	16d/ 16A/	.	4ddd\ 4dd\	.	.	.	.	.	.	8d/L	.	8dd\L	.
.	.	16d/ 16A/	.	.	.	.	.	.	.	.	.	.	.	.
.	.	16d/ 16A/	.	.	.	.	.	.	.	.	8d/J	.	8dd\J	.
.	.	16d/ 16A/	.	.	.	.	.	.	.	.	.	.	.	.
.	.	16d/ 16A/	.	4ddd\ 4dd\	.	.	.	.	.	.	4d/	.	4dd\	.
.	.	16d/ 16A/	.	.	.	.	.	.	.	.	.	.	.	.
.	.	16d/ 16A/	.	.	.	.	.	.	.	.	.	.	.	.
.	.	16d/ 16A/	.	.	.	.	.	.	.	.	.	.	.	.
.	.	16d/ 16A/	.	4ddd\ 4dd\	.	.	.	.	.	.	4d/	.	4dd\	.
.	.	16d/ 16A/	.	.	.	.	.	.	.	.	.	.	.	.
.	.	16d/ 16A/	.	.	.	.	.	.	.	.	.	.	.	.
.	.	16d/JJ 16A/	.	.	.	.	.	.	.	.	.	.	.	.
=97	=97	=97	=97	=97	=97	=97	=97	=97	=97	=97	=97	=97	=97	=97
1ryy	.	16d/LL 16cn/	.	8cccn\L	.	.	.	.	.	1ryy	2a\	.	2cc\	.
.	.	16d/ 16c/	.	.	.	.	.	.	.	.	.	.	.	.
.	.	16d/ 16c/	.	8bb\	.	.	.	.	.	.	.	.	.	.
.	.	16d/ 16c/	.	.	.	.	.	.	.	.	.	.	.	.
.	.	16d/ 16c/	.	8aa\	.	.	.	.	.	.	.	.	.	.
.	.	16d/ 16c/	.	.	.	.	.	.	.	.	.	.	.	.
.	.	16d/ 16c/	.	8gg\J	.	.	.	.	.	.	.	.	.	.
.	.	16d/ 16c/	.	.	.	.	.	.	.	.	.	.	.	.
.	.	16d/ 16c/	.	8ff#\L	.	.	.	.	.	.	2d/	.	2a\	.
.	.	16d/ 16c/	.	.	.	.	.	.	.	.	.	.	.	.
.	.	16d/ 16c/	.	8ee\	.	.	.	.	.	.	.	.	.	.
.	.	16d/ 16c/	.	.	.	.	.	.	.	.	.	.	.	.
.	.	16d/ 16c/	.	8dd\	.	.	.	.	.	.	.	.	.	.
.	.	16d/ 16c/	.	.	.	.	.	.	.	.	.	.	.	.
.	.	16d/ 16c/	.	8ccn\J	.	.	.	.	.	.	.	.	.	.
.	.	16d/JJ 16c/	.	.	.	.	.	.	.	.	.	.	.	.
*	*	*Xtremolo	*	*	*	*	*	*	*	*	*	*	*	*
=98	=98	=98	=98	=98	=98	=98	=98	=98	=98	=98	=98	=98	=98	=98
1ryy	.	16B/LL	.	4b\	.	.	.	.	.	1ryy	4B/	.	4g\	.
.	.	16B/	.	.	.	.	.	.	.	.	.	.	.	.
.	.	16d/	.	.	.	.	.	.	.	.	.	.	.	.
.	.	16d/JJ	.	.	.	.	.	.	.	.	.	.	.	.
*	*	*rep	*	*	*	*	*	*	*	*	*	*	*	*
.	.	16B/LL	.	4dd\	.	.	.	.	.	.	8g\L	.	8b\L	.
.	.	16B/	.	.	.	.	.	.	.	.	.	.	.	.
.	.	16d/	.	.	.	.	.	.	.	.	8g\J	.	8b\J	.
.	.	16d/JJ	.	.	.	.	.	.	.	.	.	.	.	.
*	*	*Xrep	*	*	*	*	*	*	*	*	*	*	*	*
*	*	*rep	*	*	*	*	*	*	*	*	*	*	*	*
.	.	16B/LL	.	16cc#X\LL	.	.	.	.	.	.	4g\	.	4b\	.
.	.	16B/	.	16dd\	.	.	.	.	.	.	.	.	.	.
.	.	16d/	.	16ee\	.	.	.	.	.	.	.	.	.	.
.	.	16d/JJ	.	16dd\JJ	.	.	.	.	.	.	.	.	.	.
*	*	*Xrep	*	*	*	*	*	*	*	*	*	*	*	*
*	*	*rep	*	*	*	*	*	*	*	*	*	*	*	*
.	.	16B/LL	.	16cc#\LL	.	.	.	.	.	.	4r	.	4r	.
.	.	16B/	.	16dd\	.	.	.	.	.	.	.	.	.	.
.	.	16d/	.	16b\	.	.	.	.	.	.	.	.	.	.
.	.	16d/JJ	.	16dd\JJ	.	.	.	.	.	.	.	.	.	.
*	*	*Xrep	*	*	*	*	*	*	*	*	*	*	*	*
!	!	!	!	!	!	!	!	!	!	!	!	!	!LO:LB:g=original	!
=99	=99	=99	=99	=99	=99	=99	=99	=99	=99	=99	=99	=99	=99	=99
1ryy	.	16cn/LL	.	8ccn/L	.	00r	.	00r	.	1ryy	2a\	.	2cc\	.
.	.	16c/	.	.	.	.	.	.	.	.	.	.	.	.
.	.	16d/	.	8b/	.	.	.	.	.	.	.	.	.	.
.	.	16d/JJ	.	.	.	.	.	.	.	.	.	.	.	.
*	*	*rep	*	*	*	*	*	*	*	*	*	*	*	*
.	.	16c/LL	.	8a/	.	.	.	.	.	.	.	.	.	.
.	.	16c/	.	.	.	.	.	.	.	.	.	.	.	.
.	.	16d/	.	8g/J	.	.	.	.	.	.	.	.	.	.
.	.	16d/JJ	.	.	.	.	.	.	.	.	.	.	.	.
*	*	*Xrep	*	*	*	*	*	*	*	*	*	*	*	*
*	*	*rep	*	*	*	*	*	*	*	*	*	*	*	*
.	.	16c/LL	.	8f#/L	.	.	.	.	.	.	2d/	.	2a\	.
.	.	16c/	.	.	.	.	.	.	.	.	.	.	.	.
.	.	16d/	.	8e/	.	.	.	.	.	.	.	.	.	.
.	.	16d/JJ	.	.	.	.	.	.	.	.	.	.	.	.
*	*	*Xrep	*	*	*	*	*	*	*	*	*	*	*	*
*	*	*rep	*	*	*	*	*	*	*	*	*	*	*	*
.	.	16c/LL	.	8d/	.	.	.	.	.	.	.	.	.	.
.	.	16c/	.	.	.	.	.	.	.	.	.	.	.	.
.	.	16d/	.	8c/J	.	.	.	.	.	.	.	.	.	.
.	.	16d/JJ	.	.	.	.	.	.	.	.	.	.	.	.
*	*	*Xrep	*	*	*	*	*	*	*	*	*	*	*	*
!	!	!	!	!LO:LB:g=original	!	!	!	!	!	!	!	!	!	!
=100	=100	=100	=100	=100	=100	=100	=100	=100	=100	=100	=100	=100	=100	=100
1ryy	.	16d/LL	.	8B/L	.	.	.	.	.	1ryy	2g\	.	2b\	.
.	.	16d/	.	.	.	.	.	.	.	.	.	.	.	.
.	.	16g/	.	8d/	.	.	.	.	.	.	.	.	.	.
.	.	16g/JJ	.	.	.	.	.	.	.	.	.	.	.	.
*	*	*rep	*	*	*	*	*	*	*	*	*	*	*	*
.	.	16d/LL	.	8g/	.	.	.	.	.	.	.	.	.	.
.	.	16d/	.	.	.	.	.	.	.	.	.	.	.	.
.	.	16g/	.	8b/J	.	.	.	.	.	.	.	.	.	.
.	.	16g/JJ	.	.	.	.	.	.	.	.	.	.	.	.
*	*	*Xrep	*	*	*	*	*	*	*	*	*	*	*	*
*	*	*rep	*	*	*	*	*	*	*	*	*	*	*	*
.	.	16d/LL	.	8dd\L	.	.	.	.	.	.	2b\	.	2dd\	.
.	.	16d/	.	.	.	.	.	.	.	.	.	.	.	.
.	.	16g/	.	8gg\	.	.	.	.	.	.	.	.	.	.
.	.	16g/JJ	.	.	.	.	.	.	.	.	.	.	.	.
*	*	*Xrep	*	*	*	*	*	*	*	*	*	*	*	*
*	*	*rep	*	*	*	*	*	*	*	*	*	*	*	*
.	.	16d/LL	.	8bb\	.	.	.	.	.	.	.	.	.	.
.	.	16d/	.	.	.	.	.	.	.	.	.	.	.	.
.	.	16g/	.	8ddd\J	.	.	.	.	.	.	.	.	.	.
.	.	16g/JJ	.	.	.	.	.	.	.	.	.	.	.	.
*	*	*Xrep	*	*	*	*	*	*	*	*	*	*	*	*
=101	=101	=101	=101	=101	=101	=101	=101	=101	=101	=101	=101	=101	=101	=101
1ryy	.	16c/LL	.	8ccc\L	.	.	.	.	.	1ryy	2a\	.	2cc\	.
.	.	16c/	.	.	.	.	.	.	.	.	.	.	.	.
.	.	16d/	.	8bb\	.	.	.	.	.	.	.	.	.	.
.	.	16d/JJ	.	.	.	.	.	.	.	.	.	.	.	.
*	*	*rep	*	*	*	*	*	*	*	*	*	*	*	*
.	.	16c/LL	.	8aa\	.	.	.	.	.	.	.	.	.	.
.	.	16c/	.	.	.	.	.	.	.	.	.	.	.	.
.	.	16d/	.	8gg\J	.	.	.	.	.	.	.	.	.	.
.	.	16d/JJ	.	.	.	.	.	.	.	.	.	.	.	.
*	*	*Xrep	*	*	*	*	*	*	*	*	*	*	*	*
*	*	*rep	*	*	*	*	*	*	*	*	*	*	*	*
.	.	16c/LL	.	8ff#\L	.	.	.	.	.	.	2d/	.	2a\	.
.	.	16c/	.	.	.	.	.	.	.	.	.	.	.	.
.	.	16d/	.	8ee\	.	.	.	.	.	.	.	.	.	.
.	.	16d/JJ	.	.	.	.	.	.	.	.	.	.	.	.
*	*	*Xrep	*	*	*	*	*	*	*	*	*	*	*	*
*	*	*rep	*	*	*	*	*	*	*	*	*	*	*	*
.	.	16c/LL	.	8dd\	.	.	.	.	.	.	.	.	.	.
.	.	16c/	.	.	.	.	.	.	.	.	.	.	.	.
.	.	16d/	.	8cc\J	.	.	.	.	.	.	.	.	.	.
.	.	16d/JJ	.	.	.	.	.	.	.	.	.	.	.	.
*	*	*Xrep	*	*	*	*	*	*	*	*	*	*	*	*
=102	=102	=102	=102	=102	=102	=102	=102	=102	=102	=102	=102	=102	=102	=102
!	!	!LO:TX:t=P:problem:mixedbeam	!	!	!	!	!	!	!	!	!	!	!	!
1ryy	.	8B/L	.	8b\L	.	.	.	.	.	1ryy	4g\	.	4b\	.
.	.	8gg\	.	8gg\	.	.	.	.	.	.	.	.	.	.
.	.	8ee\	.	8ee\	.	.	.	.	.	.	4r	.	4r	.
.	.	8cc#X\J	.	8cc#X\J	.	.	.	.	.	.	.	.	.	.
!	!	!LO:LB:g=original	!	!	!	!	!	!	!	!	!	!	!	!
.	.	8dd\L	.	8dd\L	.	.	.	.	.	.	2r	.	2r	.
.	.	8ee\	.	8ee\	.	.	.	.	.	.	.	.	.	.
.	.	8ccn\	.	8ccn\	.	.	.	.	.	.	.	.	.	.
.	.	8a\J	.	8a\J	.	.	.	.	.	.	.	.	.	.
=103	=103	=103	=103	=103	=103	=103	=103	=103	=103	=103	=103	=103	=103	=103
1ryy	.	8g/L	.	8g/L	.	0r	.	0r	.	1ryy	1r	.	1r	.
.	.	8b/	.	8b/	.	.	.	.	.	.	.	.	.	.
.	.	8g/	.	8g/	.	.	.	.	.	.	.	.	.	.
.	.	8d#X/J	.	8d#X/J	.	.	.	.	.	.	.	.	.	.
.	.	8e/L	.	8e/L	.	.	.	.	.	.	.	.	.	.
.	.	8g/	.	8g/	.	.	.	.	.	.	.	.	.	.
.	.	8e/	.	8e/	.	.	.	.	.	.	.	.	.	.
.	.	8c#X/J	.	8c#X/J	.	.	.	.	.	.	.	.	.	.
=104	=104	=104	=104	=104	=104	=104	=104	=104	=104	=104	=104	=104	=104	=104
1ryy	.	4d/	.	4d/	.	.	.	.	.	1ryy	4d/	.	4dd\	.
.	.	4d/	.	4dd/ 4f#/	.	.	.	.	.	.	8.D/L	.	8.d/L	.
.	.	.	.	.	.	.	.	.	.	.	16D/Jk	.	16d/Jk	.
.	.	4d/	.	4dd/ 4f#/	.	.	.	.	.	.	4D/	.	4d/	.
.	.	4r	.	4r	.	.	.	.	.	.	4r	.	4r	.
!	!	!	!	!	!	!LO:LB:g=original	!	!	!	!LO:LB:g=original	!	!	!	!
=105	=105	=105	=105	=105	=105	=105	=105	=105	=105	=105	=105	=105	=105	=105
!	!	!	!LO:DY:rj	!	!	!	!	!	!	!	!	!	!	!
1ryy	.	4.d/	p	4.b/	.	4.B\	ma-	(4.d\	Ma-	1ryy	0r	.	0r	.
.	.	8c/	.	8a/	.	8A\	.	8cn\)	.	.	.	.	.	.
.	.	4B/	.	4g/	.	4G\	-ter	4B\	-ter	.	.	.	.	.
.	.	4B/	.	4g/	.	4G\	a-	4B\	a-	.	.	.	.	.
=106	=106	=106	=106	=106	=106	=106	=106	=106	=106	=106	=106	=106	=106	=106
1ryy	.	4.B/	.	4.g/	.	4.G\	-ma-	4.B\	-ma-	1ryy	.	.	.	.
.	.	8c/	.	8a/	.	8A\	-bi-	8c\	-bi-	.	.	.	.	.
.	.	2d/	.	2b/	.	2B\	-lis	2d\	-lis	.	.	.	.	.
!	!	!	!	!LO:LB:g=original	!	!	!	!	!	!	!	!	!	!
=107	=107	=107	=107	=107	=107	=107	=107	=107	=107	=107	=107	=107	=107	=107
1ryy	.	4c/	.	4a/	.	4A\	ma-	4c\	ma-	1ryy	1r	.	1r	.
.	.	4c/	.	4a/	.	4A\	-ter	4c\	-ter	.	.	.	.	.
!	!	!	!	!	!	!	!	!LO:LB:g=original	!	!	!	!	!	!
.	.	.	.	.	.	8qqB/	.	16qqd/	.	.	.	.	.	.
.	.	8c/L	.	8a/L	.	8A\L	ad	8c\L	ad	.	.	.	.	.
.	.	8B/	.	8g/	.	8G\	.	8B\	.	.	.	.	.	.
.	.	8c/	.	8a/	.	8A\	mi-	8c\J	.	.	.	.	.	.
.	.	8A/J	.	8f#/J	.	8F#\J	.	8A\	mi-	.	.	.	.	.
=108	=108	=108	=108	=108	=108	=108	=108	=108	=108	=108	=108	=108	=108	=108
!	!	!	!LO:DY:rj	!	!LO:DY:rj	!	!	!	!	!	!LO:TX:t=P:problem:mixedbeam	!	!	!
1ryy	.	16B/LL	f	8g/L	f	8G\	-ra-	8A/	-ra-	1ryy	8G/L	.	8g\L	.
.	.	16g/	.	.	.	.	.	.	.	.	.	.	.	.
.	.	16f#/	.	16a/L	.	8GG/	-bi-	8G/	-bi-	.	8g\	.	8g\	.
.	.	16g/JJ	.	16b/JJ	.	.	.	.	.	.	.	.	.	.
.	.	16a/LL	.	16cc\LL	.	4GG/	-lis	4G/	-lis	.	8d\	.	8d\	.
.	.	16b/	.	16dd\	.	.	.	.	.	.	.	.	.	.
.	.	16cc/	.	16ee\	.	.	.	.	.	.	8B/J	.	8B\J	.
.	.	16a/JJ	.	16ff#\JJ	.	.	.	.	.	.	.	.	.	.
!	!	!	!	!LO:TX:t=P:problem:mixedbeam	!	!	!	!	!	!	!	!	!	!
.	.	8b/L	.	8gg\L	.	2r	.	2r	.	.	4G/	.	4G/	.
.	.	8e/	.	8g/	.	.	.	.	.	.	.	.	.	.
.	.	8d/	.	8f#/	.	.	.	.	.	.	4r	.	4r	.
.	.	8c/J	.	8e/J	.	.	.	.	.	.	.	.	.	.
!	!	!LO:PB:g=original	!	!	!	!	!	!	!	!	!	!	!	!
=109	=109	=109	=109	=109	=109	=109	=109	=109	=109	=109	=109	=109	=109	=109
1ryy	.	4.B/	.	4.d/	.	4.d\	ma-	(4.B\	ma-	1ryy	0r	.	0r	.
.	.	8A/	.	8c/	.	8c\	.	8A\)	.	.	.	.	.	.
.	.	4G/	.	4B/	.	4B\	-ter	4G/	-ter	.	.	.	.	.
.	.	4G/	.	4B/	.	4B\	a-	4G/	a-	.	.	.	.	.
!	!	!	!	!	!	!LO:LB:g=original	!	!	!	!	!	!	!	!
=110	=110	=110	=110	=110	=110	=110	=110	=110	=110	=110	=110	=110	=110	=110
1ryy	.	4.G/	.	4.B/	.	4.B\	-ma-	4.G\	-ma-	1ryy	.	.	.	.
.	.	8A/	.	8c/	.	8c\	-bi-	8A\	-bi-	.	.	.	.	.
.	.	2B/	.	2d/	.	2d\	-lis	2B\	-lis	.	.	.	.	.
=111	=111	=111	=111	=111	=111	=111	=111	=111	=111	=111	=111	=111	=111	=111
8D\L	7 5	4c/	.	4a/	.	4c\	ma-	4A\	ma-	1ryy	1r	.	1r	.
8D\	.	.	.	.	.	.	.	.	.	.	.	.	.	.
8F#\	.	4c/	.	4a/	.	4c\	-ter	4A\	-ter	.	.	.	.	.
8D\J	.	.	.	.	.	.	.	.	.	.	.	.	.	.
8G\L	3	8c/L	.	8a/L	.	8c\L	ad	8A\L	ad	.	.	.	.	.
8D\	.	8B/	.	8g/	.	8B\	.	8G\J	.	.	.	.	.	.
8BB\	.	8d/	.	8.b/	.	8.d\J	.	8.B\L	mi-	.	.	.	.	.
8GG\J	.	8B/J	.	.	.	.	.	.	.	.	.	.	.	.
.	.	.	.	16g/Jk	.	16B\	mi-	16G\Jk	.	.	.	.	.	.
=112	=112	=112	=112	=112	=112	=112	=112	=112	=112	=112	=112	=112	=112	=112
4D\	6 3	4B/	.	4g/	.	8B\	-ra-	8G/	-ra-	1ryy	2r	.	2r	.
.	.	.	.	.	.	8A\	-bi-	8F#/	-bi-	.	.	.	.	.
4DD/	.	4A/	.	4f#/	.	4A\	-lis	4F#/	-lis	.	.	.	.	.
4DD/	.	4dd/ 4d/	.	4dd/ 4d/	f	2r	.	2r	.	.	4D/	.	4d/	.
4r	.	4r	.	4r	.	.	.	.	.	.	4r	.	4r	.
!	!	!	!	!	!	!	!	!LO:LB:g=original	!	!	!	!	!	!
=113	=113	=113!|:	=113	=113	=113	=113	=113	=113	=113	=113	=113	=113	=113	=113
!	!	!LO:SIC:s:v=znak repetycji	!	!	!	!	!	!	!	!	!	!	!	!
4D\	.	8a/L	.	4cc\	.	0r	.	2.d\	ma-	1ryy	00r	.	00r	.
.	.	8d/	.	.	.	.	.	.	.	.	.	.	.	.
4r	.	8d/	.	4r	.	.	.	.	.	.	.	.	.	.
.	.	8d/J	.	.	.	.	.	.	.	.	.	.	.	.
*	*	*tremolo	*	*	*	*	*	*	*	*	*	*	*	*
4F#\	.	8a/L	.	4cc\	.	.	.	.	.	.	.	.	.	.
.	.	8d/	.	.	.	.	.	.	.	.	.	.	.	.
4D\	.	8a/	.	4cc\	.	.	.	4c\	-ter	.	.	.	.	.
.	.	8d/J	.	.	.	.	.	.	.	.	.	.	.	.
!	!	!	!	!LO:LB:g=original	!	!	!	!	!	!	!	!	!	!
=114	=114	=114	=114	=114	=114	=114	=114	=114	=114	=114	=114	=114	=114	=114
4G\	.	8g/L	.	4b\	.	.	.	4c\	cre-	1ryy	.	.	.	.
.	.	8d/	.	.	.	.	.	.	.	.	.	.	.	.
4r	.	8d/	.	4r	.	.	.	4B\	-a-	.	.	.	.	.
.	.	8d/J	.	.	.	.	.	.	.	.	.	.	.	.
4BB/	.	8g/L	.	4b\	.	.	.	4A\	-to-	.	.	.	.	.
.	.	8d/	.	.	.	.	.	.	.	.	.	.	.	.
4GG/	.	8g/	.	4b\	.	.	.	4G/	-ris	.	.	.	.	.
.	.	8d/J	.	.	.	.	.	.	.	.	.	.	.	.
=115	=115	=115	=115	=115	=115	=115	=115	=115	=115	=115	=115	=115	=115	=115
4DD/	.	8c/L	.	4f#/	.	2.d\	ma-	2.F#/	ma-	1ryy	.	.	.	.
.	.	8d/	.	.	.	.	.	.	.	.	.	.	.	.
4r	.	8d/	.	4r	.	.	.	.	.	.	.	.	.	.
.	.	8d/J	.	.	.	.	.	.	.	.	.	.	.	.
4D/	.	8c/L	.	4f#/	.	.	.	.	.	.	.	.	.	.
.	.	8d/	.	.	.	.	.	.	.	.	.	.	.	.
4C/	.	8c/	.	4f#/	.	4c\	-ter	4A/	-ter	.	.	.	.	.
.	.	8d/J	.	.	.	.	.	.	.	.	.	.	.	.
=116	=116	=116	=116	=116	=116	=116	=116	=116	=116	=116	=116	=116	=116	=116
4BB/	.	8B/L	.	4g/	.	4c\	cre-	4A/	sal-	1ryy	.	.	.	.
.	.	8d/	.	.	.	.	.	.	.	.	.	.	.	.
4r	.	8d/	.	4r	.	4B\	-a-	4G/	-va-	.	.	.	.	.
.	.	8d/J	.	.	.	.	.	.	.	.	.	.	.	.
4GG/	.	8B/L	.	4g/	.	4A\	-to-	4c\	-to-	.	.	.	.	.
.	.	8d/	.	.	.	.	.	.	.	.	.	.	.	.
4BB/	.	8B/	.	4g/	.	4G\	-ris	4B\	-ris	.	.	.	.	.
!	!	!LO:SIC:s:v=znak repetycji	!	!	!	!	!	!	!	!	!	!	!	!
.	.	8d/J	.	.	.	.	.	.	.	.	.	.	.	.
*	*	*Xtremolo	*	*	*	*	*	*	*	*	*	*	*	*
!	!	!	!	!	!	!LO:LB:g=original	!	!	!	!	!	!	!	!
=117	=117	=117:|!	=117	=117	=117	=117	=117	=117	=117	=117	=117	=117	=117	=117
!	!	!LO:SIC:s:v=w taktach 117 - 120 repetycja rozpisana ze względu na rozpisany tenor i bas	!	!	!	!	!	!	!	!	!	!	!	!
4D\	.	8a/Lyy	.	4cc\	.	2.F#\	ma-	2.d\	ma-	1ryy	00r	.	00r	.
.	.	8d/yy	.	.	.	.	.	.	.	.	.	.	.	.
4r	.	8d/yy	.	4r	.	.	.	.	.	.	.	.	.	.
.	.	8d/Jyy	.	.	.	.	.	.	.	.	.	.	.	.
*	*	*tremolo	*	*	*	*	*	*	*	*	*	*	*	*
4F#\	.	8a/Lyy	.	4cc\	.	.	.	.	.	.	.	.	.	.
.	.	8d/yy	.	.	.	.	.	.	.	.	.	.	.	.
4D\	.	8a/yy	.	4cc\	.	4A\	-ter	4c\	-ter	.	.	.	.	.
.	.	8d/Jyy	.	.	.	.	.	.	.	.	.	.	.	.
=118	=118	=118	=118	=118	=118	=118	=118	=118	=118	=118	=118	=118	=118	=118
4G\	.	8g/Lyy	.	4b\	.	4A\	sal-	4c\	cre-	1ryy	.	.	.	.
.	.	8d/yy	.	.	.	.	.	.	.	.	.	.	.	.
4r	.	8d/yy	.	4r	.	4G\	-ba-	4B\	-a-	.	.	.	.	.
.	.	8d/Jyy	.	.	.	.	.	.	.	.	.	.	.	.
4BB/	.	8g/Lyy	.	4b\	.	4c\	-to-	4A\	-to-	.	.	.	.	.
.	.	8d/yy	.	.	.	.	.	.	.	.	.	.	.	.
4GG/	.	8g/yy	.	4b\	.	4B\	-ris	4G\	-ris	.	.	.	.	.
.	.	8d/Jyy	.	.	.	.	.	.	.	.	.	.	.	.
=119	=119	=119	=119	=119	=119	=119	=119	=119	=119	=119	=119	=119	=119	=119
4DD/	.	8c/Lyy	.	4f#/	.	2.d\	ma-	2.F#/	ma-	1ryy	.	.	.	.
.	.	8d/yy	.	.	.	.	.	.	.	.	.	.	.	.
4r	.	8d/yy	.	4r	.	.	.	.	.	.	.	.	.	.
.	.	8d/Jyy	.	.	.	.	.	.	.	.	.	.	.	.
4D/	.	8c/Lyy	.	4f#/	.	.	.	.	.	.	.	.	.	.
.	.	8d/yy	.	.	.	.	.	.	.	.	.	.	.	.
4C/	.	8c/yy	.	4f#/	.	4c\	-ter	4A/	-ter	.	.	.	.	.
.	.	8d/Jyy	.	.	.	.	.	.	.	.	.	.	.	.
!LO:LB:g=original	!	!	!	!	!	!	!	!	!	!	!	!	!	!
=120	=120	=120	=120	=120	=120	=120	=120	=120	=120	=120	=120	=120	=120	=120
4BB/	.	8B/Lyy	.	4g/	.	4c\	cre-	4A/	sal-	1ryy	.	.	.	.
.	.	8d/yy	.	.	.	.	.	.	.	.	.	.	.	.
4r	.	8d/yy	.	4r	.	4B\	-a-	4G/	-va-	.	.	.	.	.
.	.	8d/Jyy	.	.	.	.	.	.	.	.	.	.	.	.
4GG/	.	8B/Lyy	.	4g/	.	4A\	-to-	4c\	-to-	.	.	.	.	.
.	.	8d/yy	.	.	.	.	.	.	.	.	.	.	.	.
4BB/	.	8B/yy	.	4g/	.	4G\	-ris	4B\	-ris	.	.	.	.	.
!	!	!LO:SIC:s:v=znak repetycji	!	!	!	!	!	!	!	!	!	!	!	!
.	.	8d/Jyy	.	.	.	.	.	.	.	.	.	.	.	.
*	*	*Xtremolo	*	*	*	*	*	*	*	*	*	*	*	*
!	!	!LO:LB:g=original	!	!	!	!	!	!LO:LB:g=original	!	!	!	!	!	!
=121	=121	=121	=121	=121	=121	=121	=121	=121	=121	=121	=121	=121	=121	=121
*2\right	*	*	*	*	*	*	*	*	*	*	*	*	*	*
2F#\	7 5 3	2a/ 2d/	.	8ee\L	.	2c\	o-	2e\	o-	1ryy	00r	.	00r	.
.	.	.	.	8ff#\	.	.	.	.	.	.	.	.	.	.
.	.	.	.	8gg\	.	.	.	.	.	.	.	.	.	.
.	.	.	.	8ee\J	.	.	.	.	.	.	.	.	.	.
4G\	5 3	4b/ 4d/	.	8ee\L	.	4B\	-ra	4d\	-ra	.	.	.	.	.
.	.	.	.	8dd\	.	.	.	.	.	.	.	.	.	.
4r	.	4r	.	8b\	.	4r	.	4r	.	.	.	.	.	.
.	.	.	.	8g\J	.	.	.	.	.	.	.	.	.	.
=122	=122	=122	=122	=122	=122	=122	=122	=122	=122	=122	=122	=122	=122	=122
*	*	*	*	*	*	*	*ij	*	*ij	*	*	*	*	*
2D#X\	7 6 3	2a/ 2f#/	.	8cc\L	.	2A\	o-	2c\	o-	1ryy	.	.	.	.
.	.	.	.	8ee\	.	.	.	.	.	.	.	.	.	.
.	.	.	.	8dd\	.	.	.	.	.	.	.	.	.	.
.	.	.	.	8cc\J	.	.	.	.	.	.	.	.	.	.
4E\	5 3	4b/ 4g/	.	8cc\L	.	4G\	-ra	4B\	-ra	.	.	.	.	.
*	*	*	*	*	*	*	*	*	*Xij	*	*	*	*	*
.	.	.	.	8b\	.	.	.	.	.	.	.	.	.	.
4r	.	4r	.	8a\	.	4r	.	4r	.	.	.	.	.	.
.	.	.	.	8b\J	.	.	.	.	.	.	.	.	.	.
!	!	!	!	!LO:LB:g=original	!	!	!	!	!	!	!	!	!	!
=123	=123	=123	=123	=123	=123	=123	=123	=123	=123	=123	=123	=123	=123	=123
2C\	6 3	8c/L	.	8a\L	.	8C/L	o-	8A\L	o-	1ryy	.	.	.	.
.	.	8d/	.	8b\	.	8D/J	.	8B\J	.	.	.	.	.	.
.	.	8e/	.	8cc\	.	8E/	-ra	8c\	-ra	.	.	.	.	.
*	*	*	*	*	*	*	*Xij	*	*	*	*	*	*	*
.	.	8c/J	.	8a\J	.	8C/	pro	8A\	pro	.	.	.	.	.
!	!	!	!	!	!	!LO:LB:g=original	!	!	!	!	!	!	!	!
4D\	4	8c/L	.	8a/L	.	4D\	no-	4G/	no-	.	.	.	.	.
.	.	8B/	.	8g/	.	.	.	.	.	.	.	.	.	.
4DD/	3	8B/	.	8g/	.	4DD/	.	4F#/	.	.	.	.	.	.
.	.	8A/J	.	8f#X/J	.	.	.	.	.	.	.	.	.	.
=124	=124	=124	=124	=124	=124	=124	=124	=124	=124	=124	=124	=124	=124	=124
!	!	!LO:SIC:s:v=4B	!	!	!LO:DY:rj	!	!	!	!	!	!	!	!	!
!	!	!LO:TX:t=P:problem:mixedbeam	!	!	!	!	!	!	!	!	!	!	!	!
!	!	!	!LO:DY:rj	!	!	!	!	!	!	!	!	!	!	!
4GG/	.	8c/L	f	8g\L	f	4GG/	-bis	4G/	-bis	1ryy	.	.	.	.
.	.	8gg\	.	8gg\	.	.	.	.	.	.	.	.	.	.
4r	.	8dd\	.	8dd\	.	4r	.	4r	.	.	.	.	.	.
.	.	8b\J	.	8b\J	.	.	.	.	.	.	.	.	.	.
2r	.	8g/L	.	8g/L	.	2r	.	2r	.	.	.	.	.	.
.	.	8d/	.	8d/	.	.	.	.	.	.	.	.	.	.
.	.	8B/	.	8B/	.	.	.	.	.	.	.	.	.	.
.	.	8G/J	.	8G/J	.	.	.	.	.	.	.	.	.	.
=125	=125	=125!|:	=125	=125	=125	=125	=125	=125	=125	=125	=125	=125	=125	=125
!	!	!LO:SIC:s:v=znak repetycji	!	!	!	!	!	!	!	!	!	!	!	!
!	!	!	!	!	!LO:DY:rj	!	!	!	!	!	!	!	!	!
4D\	.	8a/L	p	4cc\	p	2.d\	ma-	0r	.	1ryy	00r	.	00r	.
.	.	8d/	.	.	.	.	.	.	.	.	.	.	.	.
4r	.	8d/	.	4r	.	.	.	.	.	.	.	.	.	.
.	.	8d/J	.	.	.	.	.	.	.	.	.	.	.	.
*	*	*tremolo	*	*	*	*	*	*	*	*	*	*	*	*
4F#\	.	8a/L	.	4cc\	.	.	.	.	.	.	.	.	.	.
.	.	8d/	.	.	.	.	.	.	.	.	.	.	.	.
4D\	.	8a/	.	4cc\	.	4c\	-ter	.	.	.	.	.	.	.
.	.	8d/J	.	.	.	.	.	.	.	.	.	.	.	.
=126	=126	=126	=126	=126	=126	=126	=126	=126	=126	=126	=126	=126	=126	=126
4G\	.	8g/L	.	4b\	.	4c\	cre-	.	.	1ryy	.	.	.	.
.	.	8d/	.	.	.	.	.	.	.	.	.	.	.	.
4r	.	8d/	.	4r	.	4B\	-a-	.	.	.	.	.	.	.
.	.	8d/J	.	.	.	.	.	.	.	.	.	.	.	.
4BB/	.	8g/L	.	4b\	.	4A\	-to-	.	.	.	.	.	.	.
.	.	8d/	.	.	.	.	.	.	.	.	.	.	.	.
4GG/	.	8g/	.	4b\	.	4G\	-ris	.	.	.	.	.	.	.
.	.	8d/J	.	.	.	.	.	.	.	.	.	.	.	.
=127	=127	=127	=127	=127	=127	=127	=127	=127	=127	=127	=127	=127	=127	=127
4DD/	.	8c/L	.	4f#/	.	2.F#\	ma-	2.d\	Ma-	1ryy	.	.	.	.
.	.	8d/	.	.	.	.	.	.	.	.	.	.	.	.
4r	.	8d/	.	4r	.	.	.	.	.	.	.	.	.	.
.	.	8d/J	.	.	.	.	.	.	.	.	.	.	.	.
4D/	.	8c/L	.	4f#/	.	.	.	.	.	.	.	.	.	.
.	.	8d/	.	.	.	.	.	.	.	.	.	.	.	.
4C/	.	8c/	.	4f#/	.	4A\	-ter	4c\	-ter	.	.	.	.	.
.	.	8d/J	.	.	.	.	.	.	.	.	.	.	.	.
=128	=128	=128	=128	=128	=128	=128	=128	=128	=128	=128	=128	=128	=128	=128
4BB/	.	8B/L	.	4g/	.	4A\	sal-	4c\	cre-	1ryy	.	.	.	.
.	.	8d/	.	.	.	.	.	.	.	.	.	.	.	.
4r	.	8d/	.	4r	.	4G\	-va-	4B\	-a-	.	.	.	.	.
.	.	8d/J	.	.	.	.	.	.	.	.	.	.	.	.
4GG/	.	8B/L	.	4g/	.	4c\	-to-	4A\	-to-	.	.	.	.	.
.	.	8d/	.	.	.	.	.	.	.	.	.	.	.	.
4BB/	.	8B/	.	4g/	.	4B\	-ris	4G\	-ris	.	.	.	.	.
!	!	!LO:SIC:s:v=znak repetycji	!	!	!	!	!	!	!	!	!	!	!	!
.	.	8d/J	.	.	.	.	.	.	.	.	.	.	.	.
*	*	*Xtremolo	*	*	*	*	*	*	*	*	*	*	*	*
!	!	!LO:LB:g=original	!	!	!	!	!	!	!	!	!	!	!	!
=129	=129	=129:|!	=129	=129	=129	=129	=129	=129	=129	=129	=129	=129	=129	=129
!	!	!LO:SIC:s:v=w taktach 129 - 132 repetycja rozpisana ze względu na rozpisany tenor i bas	!	!	!	!	!	!	!	!	!	!	!	!
4D\	.	8a/Lyy	p	4cc\	.	2.d\	ma-	2.F#/	ma-	1ryy	00r	.	00r	.
.	.	8d/yy	.	.	.	.	.	.	.	.	.	.	.	.
4r	.	8d/yy	.	4r	.	.	.	.	.	.	.	.	.	.
.	.	8d/Jyy	.	.	.	.	.	.	.	.	.	.	.	.
*	*	*tremolo	*	*	*	*	*	*	*	*	*	*	*	*
4F#\	.	8a/Lyy	.	4cc\	.	.	.	.	.	.	.	.	.	.
.	.	8d/yy	.	.	.	.	.	.	.	.	.	.	.	.
4D\	.	8a/yy	.	4cc\	.	4c\	-ter	4A/	-ter	.	.	.	.	.
.	.	8d/Jyy	.	.	.	.	.	.	.	.	.	.	.	.
!LO:LB:g=original	!	!	!	!	!	!LO:LB:g=original	!	!LO:LB:g=original	!	!	!	!	!	!
=130	=130	=130	=130	=130	=130	=130	=130	=130	=130	=130	=130	=130	=130	=130
4G\	.	8g/Lyy	.	4b\	.	4c\	cre-	4A/	sal-	1ryy	.	.	.	.
.	.	8d/yy	.	.	.	.	.	.	.	.	.	.	.	.
4r	.	8d/yy	.	4r	.	4B\	-a-	4G/	-va-	.	.	.	.	.
.	.	8d/Jyy	.	.	.	.	.	.	.	.	.	.	.	.
4BB/	.	8g/Lyy	.	4b\	.	4A\	-to-	4c\	-to-	.	.	.	.	.
.	.	8d/yy	.	.	.	.	.	.	.	.	.	.	.	.
4GG/	.	8g/yy	.	4b\	.	4G\	-ris	4B\	-ris	.	.	.	.	.
.	.	8d/Jyy	.	.	.	.	.	.	.	.	.	.	.	.
=131	=131	=131	=131	=131	=131	=131	=131	=131	=131	=131	=131	=131	=131	=131
4DD/	.	8c/Lyy	.	4f#/	.	2.F#\	ma-	2.d\	ma-	1ryy	.	.	.	.
.	.	8d/yy	.	.	.	.	.	.	.	.	.	.	.	.
4r	.	8d/yy	.	4r	.	.	.	.	.	.	.	.	.	.
.	.	8d/Jyy	.	.	.	.	.	.	.	.	.	.	.	.
4D/	.	8c/Lyy	.	4f#/	.	.	.	.	.	.	.	.	.	.
.	.	8d/yy	.	.	.	.	.	.	.	.	.	.	.	.
4C/	.	8c/yy	.	4f#/	.	4A\	-ter	4c\	-ter	.	.	.	.	.
.	.	8d/Jyy	.	.	.	.	.	.	.	.	.	.	.	.
!	!	!	!	!LO:LB:g=original	!	!	!	!	!	!	!	!	!	!
=132	=132	=132	=132	=132	=132	=132	=132	=132	=132	=132	=132	=132	=132	=132
4BB/	.	8B/Lyy	.	4g/	.	4A\	sal-	4c\	cre-	1ryy	.	.	.	.
.	.	8d/yy	.	.	.	.	.	.	.	.	.	.	.	.
4r	.	8d/yy	.	4r	.	4G\	-va-	4B\	-a-	.	.	.	.	.
.	.	8d/Jyy	.	.	.	.	.	.	.	.	.	.	.	.
4GG/	.	8B/Lyy	.	4g/	.	4c\	-to-	4A\	-to-	.	.	.	.	.
.	.	8d/yy	.	.	.	.	.	.	.	.	.	.	.	.
4BB/	.	8B/yy	.	4g/	.	4B\	-ris	4G\	-ris	.	.	.	.	.
!	!	!LO:SIC:s:v=znak repetycji	!	!	!	!	!	!	!	!	!	!	!	!
.	.	8d/Jyy	.	.	.	.	.	.	.	.	.	.	.	.
*	*	*Xtremolo	*	*	*	*	*	*	*	*	*	*	*	*
=133	=133	=133	=133	=133	=133	=133	=133	=133	=133	=133	=133	=133	=133	=133
2F#\	7 5 3	2a/ 2d/	.	8ee\L	.	2e\	o-	2c\	o-	1ryy	00r	.	00r	.
.	.	.	.	8ff#\	.	.	.	.	.	.	.	.	.	.
.	.	.	.	8gg\	.	.	.	.	.	.	.	.	.	.
.	.	.	.	8ee\J	.	.	.	.	.	.	.	.	.	.
4G\	5 3	4b/ 4d/	.	8ee\L	.	4d\	-ra	4B\	-ra	.	.	.	.	.
.	.	.	.	8dd\	.	.	.	.	.	.	.	.	.	.
4r	.	4r	.	8b\	.	4r	.	4r	.	.	.	.	.	.
.	.	.	.	8g\J	.	.	.	.	.	.	.	.	.	.
=134	=134	=134	=134	=134	=134	=134	=134	=134	=134	=134	=134	=134	=134	=134
*	*	*	*	*	*	*	*ij	*	*ij	*	*	*	*	*
2D#X\	7 5 3	2a/ 2f#/	.	8cc\L	.	2c\	o-	2A\	o-	1ryy	.	.	.	.
.	.	.	.	8dd\	.	.	.	.	.	.	.	.	.	.
.	.	.	.	8ee\	.	.	.	.	.	.	.	.	.	.
.	.	.	.	8cc\J	.	.	.	.	.	.	.	.	.	.
4E\	5 3	4b/ 4g/	.	8cc\L	.	4B\	-ra	4G\	-ra	.	.	.	.	.
*	*	*	*	*	*	*	*	*	*Xij	*	*	*	*	*
.	.	.	.	8b\	.	.	.	.	.	.	.	.	.	.
4r	.	4r	.	8a\	.	4r	.	4r	.	.	.	.	.	.
.	.	.	.	8b\J	.	.	.	.	.	.	.	.	.	.
=135	=135	=135	=135	=135	=135	=135	=135	=135	=135	=135	=135	=135	=135	=135
2C\	6 4	8c/L	.	8a\L	.	8A\L	o-	8c\L	o-	1ryy	.	.	.	.
.	.	8d/	.	8b\	.	8B\J	.	8d\J	.	.	.	.	.	.
.	.	8e/	.	8cc\	.	8c\	-ra	8e\	-ra	.	.	.	.	.
*	*	*	*	*	*	*	*Xij	*	*	*	*	*	*	*
.	.	8c/J	.	8a\J	.	8e\	pro	8c\	pro	.	.	.	.	.
4D\	4	4B/	.	4g/	.	4d\	no-	(4B\	no-	.	.	.	.	.
4DD/	3	4A/	.	4f#/	.	4D/	.	4A\)	.	.	.	.	.	.
!	!	!	!	!	!	!LO:LB:g=original	!	!LO:LB:g=original	!	!	!	!	!	!
=136	=136	=136	=136	=136	=136	=136	=136	=136	=136	=136	=136	=136	=136	=136
4GG/	.	4B/	.	4g/	.	4G\	-bis	8G/L	-bis	1ryy	.	.	.	.
.	.	.	.	.	.	.	.	8B/J	.	.	.	.	.	.
4r	.	4r	.	4r	.	4r	.	8A\L	o-	.	.	.	.	.
.	.	.	.	.	.	.	.	8c\J	.	.	.	.	.	.
2r	.	2r	.	2r	.	8G\L	o-	8B\L	-ra	.	.	.	.	.
.	.	.	.	.	.	8B\	.	8d\J	.	.	.	.	.	.
.	.	.	.	.	.	8A\	.	8c\L	pro	.	.	.	.	.
.	.	.	.	.	.	8c\J	.	8e\J	.	.	.	.	.	.
=137	=137	=137	=137	=137	=137	=137	=137	=137	=137	=137	=137	=137	=137	=137
4DD/	8	4r	.	4r	.	4B\	.	2d\	no-	1ryy	00r	.	00r	.
4D\	.	4d/	.	4f#/	.	4F#\	.	.	.	.	.	.	.	.
4E\	6\ 3	4c#X/	.	4g/	.	4G\	-ra	4c#X\	-bis	.	.	.	.	.
4F#X\	5 3	4cn/	.	4a/	.	4A\	pro	4cn\	pro	.	.	.	.	.
=138	=138	=138	=138	=138	=138	=138	=138	=138	=138	=138	=138	=138	=138	=138
*2\right	*	*	*	*2\right	*	*	*	*	*	*	*	*	*	*
*tremolo	*	*	*	*tremolo	*	*	*	*	*	*	*	*	*	*
8G\L	3	16d/LL	.	16b\LL	.	2G\	no-	2B\	no-	1ryy	.	.	.	.
.	.	16b/	.	16gg\	.	.	.	.	.	.	.	.	.	.
8G\	.	16d/	.	16b\	.	.	.	.	.	.	.	.	.	.
.	.	16b/JJ	.	16gg\	.	.	.	.	.	.	.	.	.	.
*	*	*rep	*	*	*	*	*	*	*	*	*	*	*	*
8G\	.	16d/LL	.	16b\	.	.	.	.	.	.	.	.	.	.
.	.	16b/	.	16gg\	.	.	.	.	.	.	.	.	.	.
8G\J	.	16d/	.	16b\	.	.	.	.	.	.	.	.	.	.
.	.	16b/JJ	.	16gg\JJ	.	.	.	.	.	.	.	.	.	.
*	*	*Xrep	*	*	*	*	*	*	*	*	*	*	*	*
8D\L	7 3	16d/LL	.	16a\LL	.	2F#t\	.	2AT\	.	.	.	.	.	.
.	.	16cc/	.	16ff#\	.	.	.	.	.	.	.	.	.	.
8D\	.	16d/	.	16a\	.	.	.	.	.	.	.	.	.	.
.	.	16cc/JJ	.	16ff#\	.	.	.	.	.	.	.	.	.	.
*	*	*rep	*	*	*	*	*	*	*	*	*	*	*	*
8D\	.	16d/LL	.	16a\	.	.	.	.	.	.	.	.	.	.
.	.	16cc/	.	16ff#\	.	.	.	.	.	.	.	.	.	.
8D\J	.	16d/	.	16a\	.	.	.	.	.	.	.	.	.	.
.	.	16cc/JJ	.	16ff#\JJ	.	.	.	.	.	.	.	.	.	.
*Xtremolo	*	*Xrep	*	*Xtremolo	*	*	*	*	*	*	*	*	*	*
=139	=139	=139	=139	=139	=139	=139	=139	=139	=139	=139	=139	=139	=139	=139
4G\	3	4b/ 4d/ 4G/	.	4gg/ 4b/ 4d/	.	8G\L	-bis	4G/	-bis	1ryy	.	.	.	.
.	.	.	.	.	.	8B\	.	.	.	.	.	.	.	.
4r	.	4r	.	4r	.	8A\	o-	4r	.	.	.	.	.	.
.	.	.	.	.	.	8c\J	.	.	.	.	.	.	.	.
2r	.	2r	.	2r	.	8B\L	.	8G/L	o-	.	.	.	.	.
.	.	.	.	.	.	8d\	.	8B/J	.	.	.	.	.	.
.	.	.	.	.	.	8c\	.	8A/L	-ra	.	.	.	.	.
.	.	.	.	.	.	8e\J	.	8c/J	.	.	.	.	.	.
!LO:LB:g=original	!	!	!	!LO:LB:g=original	!	!	!	!	!	!	!	!	!	!
=140	=140	=140	=140	=140	=140	=140	=140	=140	=140	=140	=140	=140	=140	=140
4DD/	.	4r	.	4r	.	2d\	.	4B/	o-	1ryy	.	.	.	.
4D\	3	4d/	.	4f#/	.	.	.	4F#/	.	.	.	.	.	.
4E\	3	4c#X/	.	4g/	.	4c#X\	-ra	4G/	-ra	.	.	.	.	.
4F#X\	3	4cn/	.	4a/	.	4cn\	pro	4A/	pro	.	.	.	.	.
!	!	!	!	!	!	!LO:LB:g=original	!	!	!	!	!	!	!	!
=141	=141	=141	=141	=141	=141	=141	=141	=141	=141	=141	=141	=141	=141	=141
*tremolo	*	*tremolo	*	*tremolo	*	*	*	*	*	*	*	*	*	*
8G\L	3	16d/LL	.	16b\LL	.	2B\	no-	2G/	no-	1ryy	1r	.	1r	.
.	.	16b/	.	16gg\	.	.	.	.	.	.	.	.	.	.
8G\	.	16d/	.	16b\	.	.	.	.	.	.	.	.	.	.
.	.	16b/	.	16gg\	.	.	.	.	.	.	.	.	.	.
8G\	.	16d/	.	16b\	.	.	.	.	.	.	.	.	.	.
.	.	16b/	.	16gg\	.	.	.	.	.	.	.	.	.	.
8G\J	.	16d/	.	16b\	.	.	.	.	.	.	.	.	.	.
.	.	16b/JJ	.	16gg\JJ	.	.	.	.	.	.	.	.	.	.
8D\L	7 3	16d/LL	.	16a\LL	.	2AT\	.	2F#/	.	.	.	.	.	.
.	.	16cc/	.	16ff#\	.	.	.	.	.	.	.	.	.	.
8D\	.	16d/	.	16a\	.	.	.	.	.	.	.	.	.	.
.	.	16cc/	.	16ff#\	.	.	.	.	.	.	.	.	.	.
8D\	.	16d/	.	16a\	.	.	.	.	.	.	.	.	.	.
.	.	16cc/	.	16ff#\	.	.	.	.	.	.	.	.	.	.
8D\J	.	16d/	.	16a\	.	.	.	.	.	.	.	.	.	.
.	.	16cc/JJ	.	16ff#\JJ	.	.	.	.	.	.	.	.	.	.
*Xtremolo	*	*	*	*	*	*	*	*	*	*	*	*	*	*
!	!	!LO:LB:g=original	!	!	!	!	!	!	!	!	!	!LO:PB:g=original	!	!
=142!|:	=142	=142	=142	=142	=142	=142	=142	=142	=142	=142	=142	=142	=142	=142
!LO:SIC:s:v=znak repetycji	!	!	!	!	!	!	!	!	!l	!	!LO:TX:a:t=Tutti	!	!LO:TX:a:t=Tutti	!
8G\L	.	16g/LL	.	16gg\LL	f	4G\	-bis	4G/	-bis	1ryy	4G/	.	4g\	.
.	.	16g/	.	16gg\	.	.	.	.	.	.	.	.	.	.
8G\	.	16g/	.	16gg\	.	.	.	.	.	.	.	.	.	.
.	.	16g/JJ	.	16gg\JJ	.	.	.	.	.	.	.	.	.	.
8B\	.	16b/LL	.	16bb\LL	.	4r	.	4r	.	.	4B/	.	4b\	.
.	.	16b/	.	16bb\	.	.	.	.	.	.	.	.	.	.
8B\J	.	16b/	.	16bb\	.	.	.	.	.	.	.	.	.	.
.	.	16b/JJ	.	16bb\JJ	.	.	.	.	.	.	.	.	.	.
8G\L	.	16g/LL	.	16gg\LL	.	2r	.	2r	.	.	4G/	.	4g\	.
.	.	16g/	.	16gg\	.	.	.	.	.	.	.	.	.	.
8G\	.	16g/	.	16gg\	.	.	.	.	.	.	.	.	.	.
.	.	16g/JJ	.	16gg\JJ	.	.	.	.	.	.	.	.	.	.
8D#X\	.	16d#X/LL	.	16dd#X\LL	.	.	.	.	.	.	4r	.	4r	.
.	.	16d#/	.	16dd#\	.	.	.	.	.	.	.	.	.	.
8D#\J	.	16d#/	.	16dd#\	.	.	.	.	.	.	.	.	.	.
.	.	16d#/JJ	.	16dd#\JJ	.	.	.	.	.	.	.	.	.	.
=143	=143	=143	=143	=143	=143	=143	=143	=143	=143	=143	=143	=143	=143	=143
8E\L	.	16e/LL	.	16ee\LL	.	00r	.	00r	.	1ryy	1r	.	1r	.
.	.	16e/	.	16ee\	.	.	.	.	.	.	.	.	.	.
8E\	.	16e/	.	16ee\	.	.	.	.	.	.	.	.	.	.
.	.	16e/JJ	.	16ee\JJ	.	.	.	.	.	.	.	.	.	.
8G\	.	16g/LL	.	16gg\LL	.	.	.	.	.	.	.	.	.	.
.	.	16g/	.	16gg\	.	.	.	.	.	.	.	.	.	.
8G\J	.	16g/	.	16gg\	.	.	.	.	.	.	.	.	.	.
.	.	16g/JJ	.	16gg\JJ	.	.	.	.	.	.	.	.	.	.
8E\L	.	16e/LL	.	16ee\LL	.	.	.	.	.	.	.	.	.	.
.	.	16e/	.	16ee\	.	.	.	.	.	.	.	.	.	.
8E\	.	16e/	.	16ee\	.	.	.	.	.	.	.	.	.	.
.	.	16e/JJ	.	16ee\JJ	.	.	.	.	.	.	.	.	.	.
8C#X\	.	16c#X/LL	.	16cc#X\LL	.	.	.	.	.	.	.	.	.	.
.	.	16c#/	.	16cc#\	.	.	.	.	.	.	.	.	.	.
8C#\J	.	16c#/	.	16cc#\	.	.	.	.	.	.	.	.	.	.
.	.	16c#/JJ	.	16cc#\JJ	.	.	.	.	.	.	.	.	.	.
=144	=144	=144	=144	=144	=144	=144	=144	=144	=144	=144	=144	=144	=144	=144
*tremolo	*	*	*	*	*	*	*	*	*	*	*	*	*	*
8D\L	.	16b/LL 16d/	.	16dd\LL	.	.	.	.	.	1ryy	2g\	.	2b\	.
.	.	16b/ 16d/	.	16dd\	.	.	.	.	.	.	.	.	.	.
8D\	.	16b/ 16d/	.	16dd\	.	.	.	.	.	.	.	.	.	.
.	.	16b/ 16d/	.	16dd\JJ	.	.	.	.	.	.	.	.	.	.
8D\	.	16b/ 16d/	.	16gg\LL	.	.	.	.	.	.	.	.	.	.
.	.	16b/ 16d/	.	16gg\	.	.	.	.	.	.	.	.	.	.
8D\J	.	16b/ 16d/	.	16gg\	.	.	.	.	.	.	.	.	.	.
.	.	16b/JJ 16d/	.	16gg\JJ	.	.	.	.	.	.	.	.	.	.
8DD/L	.	16cc/LL 16d/	.	16aa\LL	.	.	.	.	.	.	2d/	.	2a\	.
.	.	16cc/ 16d/	.	16aa\	.	.	.	.	.	.	.	.	.	.
8DD/	.	16cc/ 16d/	.	16aa\	.	.	.	.	.	.	.	.	.	.
.	.	16cc/ 16d/	.	16aa\JJ	.	.	.	.	.	.	.	.	.	.
8DD/	.	16cc/ 16d/	.	16ff#\LL	.	.	.	.	.	.	.	.	.	.
.	.	16cc/ 16d/	.	16ff#\	.	.	.	.	.	.	.	.	.	.
8DD/J	.	16cc/ 16d/	.	16ff#\	.	.	.	.	.	.	.	.	.	.
.	.	16cc/JJ 16d/	.	16ff#\JJ	.	.	.	.	.	.	.	.	.	.
*Xtremolo	*	*	*	*	*	*	*	*	*	*	*	*	*	*
=145:|!	=145	=145	=145	=145	=145	=145	=145	=145	=145	=145	=145	=145	=145	=145
!LO:SIC:s:v=w taktach 145-147 rozpisana repetycja ze względu na rozpisane skrzypce	!	!	!	!	!	!	!	!	!	!	!	!	!	!
8G\Lyy	.	16g/LL	.	16gg\LL	.	.	.	.	.	1ryy	4G/	.	4g\	.
.	.	16g/	.	16gg\	.	.	.	.	.	.	.	.	.	.
8G\yy	.	16g/	.	16gg\	.	.	.	.	.	.	.	.	.	.
.	.	16g/JJ	.	16gg\JJ	.	.	.	.	.	.	.	.	.	.
8B\yy	.	16b/LL	.	16bb\LL	.	.	.	.	.	.	4B/	.	4b\	.
.	.	16b/	.	16bb\	.	.	.	.	.	.	.	.	.	.
8B\Jyy	.	16b/	.	16bb\	.	.	.	.	.	.	.	.	.	.
.	.	16b/JJ	.	16bb\JJ	.	.	.	.	.	.	.	.	.	.
8G\Lyy	.	16g/LL	.	16gg\LL	.	.	.	.	.	.	4G/	.	4g\	.
.	.	16g/	.	16gg\	.	.	.	.	.	.	.	.	.	.
8G\yy	.	16g/	.	16gg\	.	.	.	.	.	.	.	.	.	.
.	.	16g/JJ	.	16gg\JJ	.	.	.	.	.	.	.	.	.	.
8D#X\yy	.	16d#X/LL	.	16dd#X\LL	.	.	.	.	.	.	4r	.	4r	.
.	.	16d#/	.	16dd#\	.	.	.	.	.	.	.	.	.	.
8D#\Jyy	.	16d#/	.	16dd#\	.	.	.	.	.	.	.	.	.	.
.	.	16d#/JJ	.	16dd#\JJ	.	.	.	.	.	.	.	.	.	.
=146	=146	=146	=146	=146	=146	=146	=146	=146	=146	=146	=146	=146	=146	=146
!LO:TX:t=P:problem:pusty takt ze względu na takt z pauzą w 2. rogu	!	!LO:TX:t=P:problem:pusty takt ze względu na takt z pauzą w 2. rogu	!	!LO:TX:t=P:problem:pusty takt ze względu na takt z pauzą w 2. rogu	!	!LO:TX:t=P:problem:pusty takt ze względu na takt z pauzą w 2. rogu	!	!LO:TX:t=P:problem:pusty takt ze względu na takt z pauzą w 2. rogu	!	!LO:TX:t=P:problem:pusty takt ze względu na takt z pauzą w 2. rogu	!LO:TX:t=P:problem:prawdopodobnie niepotrzebnie wpisany takt z pauzą	!	!LO:TX:t=P:problem:pusty takt ze względu na takt z pauzą w 2. rogu	!
1ryy	.	1ryy	.	1ryy	.	.	.	.	.	1ryy	1r	.	1ryy	.
!	!	!	!	!	!	!	!	!	!	!	!LO:LB:g=origina	!	!	!
=147	=147	=147	=147	=147	=147	=147	=147	=147	=147	=147	=147	=147	=147	=147
8E\Lyy	.	16e/LL	.	16ee\LL	.	1ryy	.	1ryy	.	1ryy	1r	.	1r	.
.	.	16e/	.	16ee\	.	.	.	.	.	.	.	.	.	.
8E\yy	.	16e/	.	16ee\	.	.	.	.	.	.	.	.	.	.
.	.	16e/JJ	.	16ee\JJ	.	.	.	.	.	.	.	.	.	.
8G\yy	.	16g/LL	.	16gg\LL	.	.	.	.	.	.	.	.	.	.
.	.	16g/	.	16gg\	.	.	.	.	.	.	.	.	.	.
8G\Jyy	.	16g/	.	16gg\	.	.	.	.	.	.	.	.	.	.
.	.	16g/JJ	.	16gg\JJ	.	.	.	.	.	.	.	.	.	.
8E\Lyy	.	16e/LL	.	16ee\LL	.	.	.	.	.	.	.	.	.	.
.	.	16e/	.	16ee\	.	.	.	.	.	.	.	.	.	.
8E\yy	.	16e/	.	16ee\	.	.	.	.	.	.	.	.	.	.
.	.	16e/JJ	.	16ee\JJ	.	.	.	.	.	.	.	.	.	.
8C#X\yy	.	16c#X/LL	.	16cc#X\LL	.	.	.	.	.	.	.	.	.	.
.	.	16c#/	.	16cc#\	.	.	.	.	.	.	.	.	.	.
8C#\Jyy	.	16c#/	.	16cc#\	.	.	.	.	.	.	.	.	.	.
.	.	16c#/JJ	.	16cc#\JJ	.	.	.	.	.	.	.	.	.	.
=148	=148	=148	=148	=148	=148	=148	=148	=148	=148	=148	=148	=148	=148	=148
*tremolo	*	*	*	*	*	*	*	*	*	*	*	*	*	*
8D\Lyy	.	16b/LL 16d/	.	16dd\LL	.	00r	.	00r	.	1ryy	2b\	.	2dd\	.
.	.	16b/ 16d/	.	16dd\	.	.	.	.	.	.	.	.	.	.
8D\yy	.	16b/ 16d/	.	16dd\	.	.	.	.	.	.	.	.	.	.
.	.	16b/ 16d/	.	16dd\JJ	.	.	.	.	.	.	.	.	.	.
8D\yy	.	16b/ 16d/	.	16gg\LL	.	.	.	.	.	.	.	.	.	.
.	.	16b/ 16d/	.	16gg\	.	.	.	.	.	.	.	.	.	.
8D\Jyy	.	16b/ 16d/	.	16gg\	.	.	.	.	.	.	.	.	.	.
.	.	16b/JJ 16d/	.	16gg\JJ	.	.	.	.	.	.	.	.	.	.
8DD/Lyy	.	16cc/LL 16d/	.	16aa\LL	.	.	.	.	.	.	2a\	.	2cc\	.
.	.	16cc/ 16d/	.	16aa\	.	.	.	.	.	.	.	.	.	.
8DD/yy	.	16cc/ 16d/	.	16aa\	.	.	.	.	.	.	.	.	.	.
.	.	16cc/ 16d/	.	16aa\JJ	.	.	.	.	.	.	.	.	.	.
8DD/yy	.	16cc/ 16d/	.	16ff#\LL	.	.	.	.	.	.	.	.	.	.
.	.	16cc/ 16d/	.	16ff#\	.	.	.	.	.	.	.	.	.	.
8DD/Jyy	.	16cc/ 16d/	.	16ff#\	.	.	.	.	.	.	.	.	.	.
.	.	16cc/JJ 16d/	.	16ff#\JJ	.	.	.	.	.	.	.	.	.	.
*Xtremolo	*	*Xtremolo	*	*Xtremolo	*	*	*	*	*	*	*	*	*	*
!	!	!	!	!LO:LB:g=original	!	!	!	!	!	!	!	!	!	!
=149	=149	=149	=149	=149	=149	=149	=149	=149	=149	=149	=149	=149	=149	=149
!	!	!	!	!	!	!	!	!	!	!	!	!LO:DY:rj	!	!
4GG/	.	16g/LL	.	4gg\	.	.	.	.	.	1ryy	2b\	p	2b\	.
.	.	16d/	.	.	.	.	.	.	.	.	.	.	.	.
.	.	16B/	.	.	.	.	.	.	.	.	.	.	.	.
.	.	16d/JJ	.	.	.	.	.	.	.	.	.	.	.	.
4r	.	16B/LL	.	8r	.	.	.	.	.	.	.	.	.	.
.	.	16d/	.	.	.	.	.	.	.	.	.	.	.	.
.	.	16B/	.	8gg\	.	.	.	.	.	.	.	.	.	.
.	.	16d/JJ	.	.	.	.	.	.	.	.	.	.	.	.
4D\	.	16c/LL	.	8ff#\L	.	.	.	.	.	.	2a\	.	2cc\	.
.	.	16d/	.	.	.	.	.	.	.	.	.	.	.	.
.	.	16c/	.	8gg\	.	.	.	.	.	.	.	.	.	.
.	.	16d/JJ	.	.	.	.	.	.	.	.	.	.	.	.
*	*	*rep	*	*	*	*	*	*	*	*	*	*	*	*
4r	.	16c/LL	.	8aa\	.	.	.	.	.	.	.	.	.	.
.	.	16d/	.	.	.	.	.	.	.	.	.	.	.	.
.	.	16c/	.	8bb\J	.	.	.	.	.	.	.	.	.	.
.	.	16d/JJ	.	.	.	.	.	.	.	.	.	.	.	.
*	*	*Xrep	*	*	*	*	*	*	*	*	*	*	*	*
=150	=150	=150	=150	=150	=150	=150	=150	=150	=150	=150	=150	=150	=150	=150
*	*	*tremolo	*	*	*	*	*	*	*	*	*	*	*	*
4G\	.	16B/LL	.	4gg\	.	.	.	.	.	1ryy	2g\	.	2b\	.
.	.	16d/	.	.	.	.	.	.	.	.	.	.	.	.
.	.	16B/	.	.	.	.	.	.	.	.	.	.	.	.
.	.	16d/	.	.	.	.	.	.	.	.	.	.	.	.
4r	.	16B/	.	8r	.	.	.	.	.	.	.	.	.	.
.	.	16d/	.	.	.	.	.	.	.	.	.	.	.	.
.	.	16B/	.	8gg\	.	.	.	.	.	.	.	.	.	.
.	.	16d/JJ	.	.	.	.	.	.	.	.	.	.	.	.
4D\	.	16c/LL	.	8ff#\L	.	.	.	.	.	.	2a\	.	2cc\	.
.	.	16d/	.	.	.	.	.	.	.	.	.	.	.	.
.	.	16c/	.	8gg\	.	.	.	.	.	.	.	.	.	.
.	.	16d/	.	.	.	.	.	.	.	.	.	.	.	.
4r	.	16c/	.	8aa\	.	.	.	.	.	.	.	.	.	.
.	.	16d/	.	.	.	.	.	.	.	.	.	.	.	.
.	.	16c/	.	8bb\J	.	.	.	.	.	.	.	.	.	.
.	.	16d/JJ	.	.	.	.	.	.	.	.	.	.	.	.
*	*	*Xtremolo	*	*	*	*	*	*	*	*	*	*	*	*
=151	=151	=151	=151	=151	=151	=151	=151	=151	=151	=151	=151	=151	=151	=151
!	!	!	!	!	!	!LO:TX:a:t=VirgoVolti Subito	!	!	!	!	!	!	!	!
4G\	.	4B/	.	4gg/ 4b/ 4d/	.	.	.	.	.	1ryy	4g\	.	4b\	.
4GG/	.	4b/ 4d/ 4G/	.	4gg/ 4b/ 4d/	.	.	.	.	.	.	8B/L	.	8g\L	.
.	.	.	.	.	.	.	.	.	.	.	8B/J	.	8g\J	.
4GG/	.	4b/ 4d/ 4G/	.	4gg/ 4b/ 4d/	.	.	.	.	.	.	4B/	.	4g\	.
!	!	!	!	!LO:TX:t=Virgo Volti	!	!	!	!	!	!	!LO:TX:b:t=Virgo Tacet	!	!LO:TX:b:t=Virgo Tacet	!
4r	.	4r	.	4r	.	.	.	.	.	.	4r	.	4r	.
==	==	==	==	==	==	==	==	==	==	==	==	==	==	==
*-	*-	*-	*-	*-	*-	*-	*-	*-	*-	*-	*-	*-	*-	*-
!!!system-decoration: [(s1,s2)][(s3,s4,s5)][(s6,s7)][(s8)]
!!!RDF**kern: > = above
!!!RDF**kern: < = below
!!!RDF**dynam: < = cres
!!!RDF**dynam: p = p.
!!!RDF**dynam: f = f.
!!!ENC:Anastazja Marusiak
!!!END:2021-11-19
!!!ENC: Leszek Kubiak
!!!END: 2021-11-29
